; generated by Slic3r 0.8.4 on 2012-07-02 at 00:08:41

; layer_height = 0.22
; perimeters = 3
; solid_layers = 4
; fill_density = 0.2
; nozzle_diameter = 0.35
; filament_diameter = 1.75
; extrusion_multiplier = 1
; perimeter_speed = 180
; infill_speed = 200
; travel_speed = 600
; scale = 1
; single wall width = 0.37mm

M107
M190 S80 ; wait for bed temperature to be reached
M104 S212 ; set temperature

M109 S212 ; wait for temperature to be reached
G90 ; use absolute coordinates
G21 ; set units to millimeters
; G92 E0 ; reset extrusion distance
M82 ; use absolute distances for extrusion
G1 X19.810 Y19.940 F36000.000
G1 F1200.000 E3.20000
G1 X19.940 Y19.810 F36000.000
G1 X20.240 Y19.550
G1 X20.400 Y19.440
G1 X20.920 Y19.160
G1 X21.100 Y19.090
G1 X21.470 Y18.980
G1 X21.860 Y18.910
G1 X22.250 Y18.890
G1 X58.130 Y18.910
G1 X58.520 Y18.980
G1 X58.890 Y19.090
G1 X59.070 Y19.160
G1 X59.420 Y19.340
G1 X59.590 Y19.440
G1 X59.750 Y19.550
G1 X60.050 Y19.810
G1 X60.180 Y19.940
G1 X60.440 Y20.240
G1 X60.550 Y20.400
G1 X60.830 Y20.920
G1 X60.900 Y21.100
G1 X61.010 Y21.470
G1 X61.080 Y21.860
G1 X61.090 Y57.940
G1 X61.080 Y58.130
G1 X61.010 Y58.520
G1 X60.900 Y58.890
G1 X60.830 Y59.070
G1 X60.650 Y59.420
G1 X60.550 Y59.590
G1 X60.440 Y59.750
G1 X60.180 Y60.050
G1 X60.050 Y60.180
G1 X59.750 Y60.440
G1 X59.590 Y60.550
G1 X59.070 Y60.830
G1 X58.890 Y60.900
G1 X58.520 Y61.010
G1 X58.130 Y61.080
G1 X57.740 Y61.100
G1 X21.860 Y61.080
G1 X21.470 Y61.010
G1 X21.100 Y60.900
G1 X20.920 Y60.830
G1 X20.570 Y60.650
G1 X20.400 Y60.550
G1 X20.240 Y60.440
G1 X19.940 Y60.180
G1 X19.810 Y60.050
G1 X19.550 Y59.750
G1 X19.440 Y59.590
G1 X19.160 Y59.070
G1 X19.090 Y58.890
G1 X18.980 Y58.520
G1 X18.910 Y58.130
G1 X18.900 Y22.050
G1 X18.910 Y21.860
G1 X18.980 Y21.470
G1 X19.090 Y21.100
G1 X19.160 Y20.920
G1 X19.340 Y20.570
G1 X19.440 Y20.400
G1 X19.550 Y20.240
G1 X19.774 Y19.982
G1 F1200.000 E0.00000
G92 E0
G1 X22.979 Y57.021 F36000.000
G1 F1200.000 E3.20000
G1 X22.979 Y47.301 F36000.000
G1 X25.493 Y44.787
G1 X25.493 Y35.213
G1 X22.979 Y32.699
G1 X22.979 Y22.979
G1 X32.699 Y22.979
G1 X35.213 Y25.493
G1 X44.787 Y25.493
G1 X47.301 Y22.979
G1 X57.021 Y22.979
G1 X57.021 Y32.699
G1 X54.507 Y35.213
G1 X54.507 Y44.787
G1 X57.021 Y47.301
G1 X57.021 Y57.021
G1 X47.301 Y57.021
G1 X44.787 Y54.507
G1 X35.213 Y54.507
G1 X32.699 Y57.021
G1 X23.034 Y57.021
G1 X22.618 Y57.382
G1 X22.618 Y47.152
G1 X25.132 Y44.637
G1 X25.132 Y35.363
G1 X22.618 Y32.848
G1 X22.618 Y22.618
G1 X32.848 Y22.618
G1 X35.363 Y25.132
G1 X44.637 Y25.132
G1 X47.152 Y22.618
G1 X57.382 Y22.618
G1 X57.382 Y32.848
G1 X54.868 Y35.363
G1 X54.868 Y44.637
G1 X57.382 Y47.152
G1 X57.382 Y57.382
G1 X47.152 Y57.382
G1 X44.637 Y54.868
G1 X35.363 Y54.868
G1 X32.848 Y57.382
G1 X22.673 Y57.382
G1 X22.257 Y57.743
G1 X22.257 Y47.003
G1 X24.772 Y44.488
G1 X24.772 Y35.512
G1 X22.257 Y32.997
G1 X22.257 Y22.257
G1 X32.997 Y22.257
G1 X35.512 Y24.772
G1 X44.488 Y24.772
G1 X47.003 Y22.257
G1 X57.743 Y22.257
G1 X57.743 Y32.997
G1 X55.228 Y35.512
G1 X55.228 Y44.488
G1 X57.743 Y47.003
G1 X57.743 Y57.743
G1 X47.003 Y57.743
G1 X44.488 Y55.228
G1 X35.512 Y55.228
G1 X32.997 Y57.743
G1 X22.312 Y57.743
G1 F1200.000 E0.00000
G92 E0
G1 X23.192 Y56.661 F36000.000
G1 F1200.000 E3.20000
G1 X32.696 Y56.661 F36000.000
G1 X33.058 Y56.299
G1 X23.192 Y56.299
G1 X23.192 Y55.936
G1 X33.421 Y55.936
G1 X33.783 Y55.574
G1 X23.192 Y55.574
G1 X23.192 Y55.212
G1 X34.145 Y55.212
G1 X34.507 Y54.850
G1 X23.192 Y54.850
G1 X23.192 Y54.488
G1 X34.869 Y54.488
G1 F1200.000 E0.00000
G92 E0
G1 X45.130 Y54.488 F36000.000
G1 F1200.000 E3.20000
G1 X56.808 Y54.488 F36000.000
G1 X56.808 Y54.850
G1 X45.493 Y54.850
G1 X45.855 Y55.212
G1 X56.808 Y55.212
G1 X56.808 Y55.574
G1 X46.217 Y55.574
G1 X46.579 Y55.936
G1 X56.808 Y55.936
G1 X56.808 Y56.299
G1 X46.941 Y56.299
G1 X47.304 Y56.661
G1 X56.808 Y56.661
G1 F1200.000 E0.00000
G92 E0
G1 X23.192 Y54.126 F36000.000
G1 F1200.000 E3.20000
G1 X56.808 Y54.126 F36000.000
G1 X56.808 Y53.763
G1 X23.192 Y53.763
G1 X23.192 Y53.401
G1 X56.808 Y53.401
G1 X56.808 Y53.039
G1 X23.192 Y53.039
G1 X23.192 Y52.677
G1 X56.808 Y52.677
G1 X56.808 Y52.315
G1 X23.192 Y52.315
G1 X23.192 Y51.952
G1 X56.808 Y51.952
G1 X56.808 Y51.590
G1 X23.192 Y51.590
G1 X23.192 Y51.228
G1 X56.808 Y51.228
G1 X56.808 Y50.866
G1 X23.192 Y50.866
G1 X23.192 Y50.504
G1 X56.808 Y50.504
G1 X56.808 Y50.141
G1 X23.192 Y50.141
G1 X23.192 Y49.779
G1 X56.808 Y49.779
G1 X56.808 Y49.417
G1 X23.192 Y49.417
G1 X23.192 Y49.055
G1 X56.808 Y49.055
G1 X56.808 Y48.693
G1 X23.192 Y48.693
G1 X23.192 Y48.330
G1 X56.808 Y48.330
G1 X56.808 Y47.968
G1 X23.192 Y47.968
G1 X23.192 Y47.606
G1 X56.808 Y47.606
G1 X56.601 Y47.244
G1 X23.399 Y47.244
G1 X23.761 Y46.882
G1 X56.239 Y46.882
G1 X55.877 Y46.519
G1 X24.123 Y46.519
G1 X24.485 Y46.157
G1 X55.514 Y46.157
G1 X55.152 Y45.795
G1 X24.848 Y45.795
G1 X25.210 Y45.433
G1 X54.790 Y45.433
G1 X54.428 Y45.071
G1 X25.572 Y45.071
G1 X25.707 Y44.709
G1 X54.293 Y44.709
G1 X54.293 Y44.346
G1 X25.707 Y44.346
G1 X25.707 Y43.984
G1 X54.293 Y43.984
G1 X54.293 Y43.622
G1 X25.707 Y43.622
G1 X25.707 Y43.260
G1 X54.293 Y43.260
G1 X54.293 Y42.897
G1 X25.707 Y42.897
G1 X25.707 Y42.535
G1 X54.293 Y42.535
G1 X54.293 Y42.173
G1 X25.707 Y42.173
G1 X25.707 Y41.811
G1 X54.293 Y41.811
G1 X54.293 Y41.449
G1 X25.707 Y41.449
G1 X25.707 Y41.087
G1 X54.293 Y41.087
G1 X54.293 Y40.724
G1 X25.707 Y40.724
G1 X25.707 Y40.362
G1 X54.293 Y40.362
G1 X54.293 Y40.000
G1 X25.707 Y40.000
G1 X25.707 Y39.638
G1 X54.293 Y39.638
G1 X54.293 Y39.276
G1 X25.707 Y39.276
G1 X25.707 Y38.913
G1 X54.293 Y38.913
G1 X54.293 Y38.551
G1 X25.707 Y38.551
G1 X25.707 Y38.189
G1 X54.293 Y38.189
G1 X54.293 Y37.827
G1 X25.707 Y37.827
G1 X25.707 Y37.465
G1 X54.293 Y37.465
G1 X54.293 Y37.102
G1 X25.707 Y37.102
G1 X25.707 Y36.740
G1 X54.293 Y36.740
G1 X54.293 Y36.378
G1 X25.707 Y36.378
G1 X25.707 Y36.016
G1 X54.293 Y36.016
G1 X54.293 Y35.654
G1 X25.707 Y35.654
G1 X25.707 Y35.291
G1 X54.293 Y35.291
G1 X54.428 Y34.929
G1 X25.572 Y34.929
G1 X25.210 Y34.567
G1 X54.790 Y34.567
G1 X55.152 Y34.205
G1 X24.848 Y34.205
G1 X24.485 Y33.843
G1 X55.514 Y33.843
G1 X55.877 Y33.480
G1 X24.123 Y33.480
G1 X23.761 Y33.118
G1 X56.239 Y33.118
G1 X56.601 Y32.756
G1 X23.399 Y32.756
G1 X23.192 Y32.394
G1 X56.808 Y32.394
G1 X56.808 Y32.032
G1 X23.192 Y32.032
G1 X23.192 Y31.670
G1 X56.808 Y31.670
G1 X56.808 Y31.307
G1 X23.192 Y31.307
G1 X23.192 Y30.945
G1 X56.808 Y30.945
G1 X56.808 Y30.583
G1 X23.192 Y30.583
G1 X23.192 Y30.221
G1 X56.808 Y30.221
G1 X56.808 Y29.859
G1 X23.192 Y29.859
G1 X23.192 Y29.496
G1 X56.808 Y29.496
G1 X56.808 Y29.134
G1 X23.192 Y29.134
G1 X23.192 Y28.772
G1 X56.808 Y28.772
G1 X56.808 Y28.410
G1 X23.192 Y28.410
G1 X23.192 Y28.048
G1 X56.808 Y28.048
G1 X56.808 Y27.685
G1 X23.192 Y27.685
G1 X23.192 Y27.323
G1 X56.808 Y27.323
G1 X56.808 Y26.961
G1 X23.192 Y26.961
G1 X23.192 Y26.599
G1 X56.808 Y26.599
G1 X56.808 Y26.237
G1 X23.192 Y26.237
G1 X23.192 Y25.874
G1 X56.808 Y25.874
G1 X56.808 Y25.512
G1 X45.131 Y25.512
G1 X45.493 Y25.150
G1 X56.808 Y25.150
G1 X56.808 Y24.788
G1 X45.855 Y24.788
G1 X46.217 Y24.426
G1 X56.808 Y24.426
G1 X56.808 Y24.063
G1 X46.579 Y24.063
G1 X46.941 Y23.701
G1 X56.808 Y23.701
G1 X56.808 Y23.339
G1 X47.304 Y23.339
G1 F1200.000 E0.00000
G92 E0
G1 X34.869 Y25.512 F36000.000
G1 F1200.000 E3.20000
G1 X23.192 Y25.512 F36000.000
G1 X23.192 Y25.150
G1 X34.507 Y25.150
G1 X34.145 Y24.788
G1 X23.192 Y24.788
G1 X23.192 Y24.426
G1 X33.783 Y24.426
G1 X33.421 Y24.063
G1 X23.192 Y24.063
G1 X23.192 Y23.701
G1 X33.058 Y23.701
G1 X32.696 Y23.339
G1 X23.192 Y23.339
M106 S244
G1 F1200.000 E0.00000
G92 E0
G1 Z0.220 F36000.000
G1 X57.241 Y57.241
G1 F1200.000 E3.20000
G1 X47.521 Y57.241 F10800.000 E3.52339
G1 X45.007 Y54.727 E3.64170
G1 X34.993 Y54.727 E3.97486
G1 X32.479 Y57.241 E4.09317
G1 X22.759 Y57.241 E4.41656
G1 X22.759 Y47.521 E4.73994
G1 X25.273 Y45.007 E4.85826
G1 X25.273 Y34.993 E5.19141
G1 X22.759 Y32.479 E5.30973
G1 X22.759 Y22.759 E5.63311
G1 X32.479 Y22.759 E5.95650
G1 X34.993 Y25.273 E6.07481
G1 X45.007 Y25.273 E6.40797
G1 X47.521 Y22.759 E6.52628
G1 X57.241 Y22.759 E6.84967
G1 X57.241 Y32.479 E7.17306
G1 X54.727 Y34.993 E7.29137
G1 X54.727 Y45.007 E7.62453
G1 X57.241 Y47.521 E7.74284
G1 X57.241 Y57.186 E8.06439
G1 X57.602 Y57.602 F36000.000
G1 X47.372 Y57.602 F10800.000 E8.40475
G1 X44.857 Y55.088 E8.52306
G1 X35.143 Y55.088 E8.84628
G1 X32.628 Y57.602 E8.96459
G1 X22.398 Y57.602 E9.30495
G1 X22.398 Y47.372 E9.64530
G1 X24.912 Y44.857 E9.76361
G1 X24.912 Y35.143 E10.08683
G1 X22.398 Y32.628 E10.20514
G1 X22.398 Y22.398 E10.54550
G1 X32.628 Y22.398 E10.88585
G1 X35.143 Y24.912 E11.00417
G1 X44.857 Y24.912 E11.32738
G1 X47.372 Y22.398 E11.44570
G1 X57.602 Y22.398 E11.78605
G1 X57.602 Y32.628 E12.12641
G1 X55.088 Y35.143 E12.24472
G1 X55.088 Y44.857 E12.56794
G1 X57.602 Y47.372 E12.68625
G1 X57.602 Y57.547 E13.02477
G1 X57.963 Y57.682 F36000.000
G1 X57.682 Y57.963 F10800.000 E13.03799
G1 X47.223 Y57.963 E13.38596
G1 X44.708 Y55.448 E13.50428
G1 X35.292 Y55.448 E13.81755
G1 X32.777 Y57.963 E13.93587
G1 X22.318 Y57.963 E14.28384
G1 X22.037 Y57.682 E14.29706
G1 X22.037 Y47.223 E14.64504
G1 X24.552 Y44.708 E14.76335
G1 X24.552 Y35.292 E15.07663
G1 X22.037 Y32.777 E15.19494
G1 X22.037 Y22.318 E15.54292
G1 X22.318 Y22.037 E15.55614
G1 X32.777 Y22.037 E15.90411
G1 X35.292 Y24.552 E16.02243
G1 X44.708 Y24.552 E16.33570
G1 X47.223 Y22.037 E16.45402
G1 X57.682 Y22.037 E16.80199
G1 X57.963 Y22.318 E16.81521
G1 X57.963 Y32.777 E17.16319
G1 X55.448 Y35.292 E17.28150
G1 X55.448 Y44.708 E17.59478
G1 X57.963 Y47.223 E17.71309
G1 X57.963 Y57.627 E18.05923
G1 F1200.000 E14.85923
G92 E0
G1 X56.881 Y57.028 F36000.000
G1 F1200.000 E3.20000
G1 X56.881 Y47.524 F12000.000 E3.51620
G1 X56.518 Y47.161 E3.53329
G1 X56.518 Y57.028 E3.86157
G1 X56.155 Y57.028 E3.87365
G1 X56.155 Y46.798 E4.21401
G1 X55.792 Y46.435 E4.23109
G1 X55.792 Y57.028 E4.58353
G1 X55.429 Y57.028 E4.59561
G1 X55.429 Y46.072 E4.96013
G1 X55.066 Y45.709 E4.97721
G1 X55.066 Y57.028 E5.35381
G1 X54.703 Y57.028 E5.36589
G1 X54.703 Y45.346 E5.75456
G1 F1200.000 E2.55456
G92 E0
G1 X54.703 Y34.655 F36000.000
G1 F1200.000 E3.20000
G1 X54.703 Y22.972 F12000.000 E3.58869
G1 X55.066 Y22.972 E3.60077
G1 X55.066 Y34.291 E3.97735
G1 X55.429 Y33.928 E3.99444
G1 X55.429 Y22.972 E4.35894
G1 X55.792 Y22.972 E4.37102
G1 X55.792 Y33.565 E4.72345
G1 X56.155 Y33.202 E4.74053
G1 X56.155 Y22.972 E5.08088
G1 X56.518 Y22.972 E5.09296
G1 X56.518 Y32.839 E5.42124
G1 X56.881 Y32.476 E5.43832
G1 X56.881 Y22.972 E5.75451
G1 F1200.000 E2.55451
G92 E0
G1 X25.297 Y34.654 F36000.000
G1 F1200.000 E3.20000
G1 X25.297 Y22.972 F12000.000 E3.58866
G1 X24.934 Y22.972 E3.60074
G1 X24.934 Y34.291 E3.97732
G1 X24.571 Y33.928 E3.99440
G1 X24.571 Y22.972 E4.35891
G1 X24.208 Y22.972 E4.37098
G1 X24.208 Y33.565 E4.72341
G1 X23.845 Y33.202 E4.74049
G1 X23.845 Y22.972 E5.08084
G1 X23.482 Y22.972 E5.09292
G1 X23.482 Y32.839 E5.42120
G1 X23.119 Y32.476 E5.43828
G1 X23.119 Y22.972 E5.75447
G1 F1200.000 E2.55447
G92 E0
G1 X23.119 Y47.524 F36000.000
G1 F1200.000 E3.20000
G1 X23.119 Y57.028 F12000.000 E3.51620
G1 X23.482 Y57.028 E3.52828
G1 X23.482 Y47.161 E3.85656
G1 X23.845 Y46.798 E3.87364
G1 X23.845 Y57.028 E4.21400
G1 X24.208 Y57.028 E4.22608
G1 X24.208 Y46.435 E4.57852
G1 X24.571 Y46.072 E4.59560
G1 X24.571 Y57.028 E4.96011
G1 X24.934 Y57.028 E4.97219
G1 X24.934 Y45.709 E5.34878
G1 X25.297 Y45.346 E5.36586
G1 X25.297 Y57.028 E5.75453
G1 X25.660 Y57.028 E5.76661
G1 X25.660 Y22.972 E6.89965
G1 X26.023 Y22.972 E6.91173
G1 X26.023 Y57.028 E8.04477
G1 X26.386 Y57.028 E8.05685
G1 X26.386 Y22.972 E9.18989
G1 X26.749 Y22.972 E9.20196
G1 X26.749 Y57.028 E10.33501
G1 X27.112 Y57.028 E10.34708
G1 X27.112 Y22.972 E11.48012
G1 X27.475 Y22.972 E11.49220
G1 X27.475 Y57.028 E12.62524
G1 X27.838 Y57.028 E12.63732
G1 X27.838 Y22.972 E13.77036
G1 X28.201 Y22.972 E13.78243
G1 X28.201 Y57.028 E14.91548
G1 X28.565 Y57.028 E14.92759
G1 X28.565 Y22.972 E16.06063
G1 X28.928 Y22.972 E16.07270
G1 X28.928 Y57.028 E17.20574
G1 X29.291 Y57.028 E17.21782
G1 X29.291 Y22.972 E18.35086
G1 X29.654 Y22.972 E18.36294
G1 X29.654 Y57.028 E19.49598
G1 X30.017 Y57.028 E19.50806
G1 X30.017 Y22.972 E20.64110
G1 X30.380 Y22.972 E20.65317
G1 X30.380 Y57.028 E21.78621
G1 X30.743 Y57.028 E21.79829
G1 X30.743 Y22.972 E22.93133
G1 X31.106 Y22.972 E22.94341
G1 X31.106 Y57.028 E24.07645
G1 X31.469 Y57.028 E24.08853
G1 X31.469 Y22.972 E25.22157
G1 X31.832 Y22.972 E25.23364
G1 X31.832 Y57.028 E26.36668
G1 X32.195 Y57.028 E26.37876
G1 X32.195 Y22.972 E27.51180
G1 X32.558 Y23.201 E27.52608
G1 X32.558 Y56.799 E28.64390
G1 X32.921 Y56.436 E28.66098
G1 X32.921 Y23.564 E29.75465
G1 X33.284 Y23.927 E29.77172
G1 X33.284 Y56.073 E30.84123
G1 X33.647 Y55.710 E30.85831
G1 X33.647 Y24.290 E31.90367
G1 X34.010 Y24.653 E31.92075
G1 X34.010 Y55.347 E32.94195
G1 X34.373 Y54.984 E32.95903
G1 X34.373 Y25.016 E33.95607
G1 X34.736 Y25.379 E33.97315
G1 X34.736 Y54.621 E34.94604
G1 X35.099 Y54.513 E34.95864
G1 X35.099 Y25.487 E35.92435
G1 X35.462 Y25.487 E35.93643
G1 X35.462 Y54.513 E36.90214
G1 X35.825 Y54.513 E36.91421
G1 X35.825 Y25.487 E37.87992
G1 X36.188 Y25.487 E37.89200
G1 X36.188 Y54.513 E38.85771
G1 X36.551 Y54.513 E38.86979
G1 X36.551 Y25.487 E39.83550
G1 X36.914 Y25.487 E39.84757
G1 X36.914 Y54.513 E40.81328
G1 X37.277 Y54.513 E40.82536
G1 X37.277 Y25.487 E41.79107
G1 X37.640 Y25.487 E41.80315
G1 X37.640 Y54.513 E42.76886
G1 X38.003 Y54.513 E42.78094
G1 X38.003 Y25.487 E43.74664
G1 X38.366 Y25.487 E43.75872
G1 X38.366 Y54.513 E44.72443
G1 X38.729 Y54.513 E44.73651
G1 X38.729 Y25.487 E45.70222
G1 X39.092 Y25.487 E45.71430
G1 X39.092 Y54.513 E46.68001
G1 X39.455 Y54.513 E46.69208
G1 X39.455 Y25.487 E47.65779
G1 X39.818 Y25.487 E47.66987
G1 X39.818 Y54.513 E48.63558
G1 X40.181 Y54.513 E48.64766
G1 X40.181 Y25.487 E49.61337
G1 X40.544 Y25.487 E49.62544
G1 X40.544 Y54.513 E50.59115
G1 X40.907 Y54.513 E50.60323
G1 X40.907 Y25.487 E51.56894
G1 X41.271 Y25.487 E51.58102
G1 X41.271 Y54.513 E52.54673
G1 X41.634 Y54.513 E52.55881
G1 X41.634 Y25.487 E53.52451
G1 X41.997 Y25.487 E53.53659
G1 X41.997 Y54.513 E54.50230
G1 X42.360 Y54.513 E54.51438
G1 X42.360 Y25.487 E55.48009
G1 X42.723 Y25.487 E55.49217
G1 X42.723 Y54.513 E56.45788
G1 X43.086 Y54.513 E56.46995
G1 X43.086 Y25.487 E57.43566
G1 X43.449 Y25.487 E57.44774
G1 X43.449 Y54.513 E58.41345
G1 X43.812 Y54.513 E58.42553
G1 X43.812 Y25.487 E59.39124
G1 X44.175 Y25.487 E59.40331
G1 X44.175 Y54.513 E60.36902
G1 X44.538 Y54.513 E60.38110
G1 X44.538 Y25.487 E61.34681
G1 X44.901 Y25.487 E61.35889
G1 X44.901 Y54.513 E62.32460
G1 X45.264 Y54.621 E62.33720
G1 X45.264 Y25.379 E63.31008
G1 X45.627 Y25.016 E63.32716
G1 X45.627 Y54.984 E64.32420
G1 X45.990 Y55.347 E64.34128
G1 X45.990 Y24.653 E65.36248
G1 X46.353 Y24.290 E65.37956
G1 X46.353 Y55.710 E66.42491
G1 X46.716 Y56.073 E66.44199
G1 X46.716 Y23.927 E67.51150
G1 X47.079 Y23.564 E67.52858
G1 X47.079 Y56.436 E68.62224
G1 X47.442 Y56.799 E68.63932
G1 X47.442 Y23.201 E69.75714
G1 X47.805 Y22.972 E69.77142
G1 X47.805 Y57.028 E70.90446
G1 X48.168 Y57.028 E70.91654
G1 X48.168 Y22.972 E72.04958
G1 X48.531 Y22.972 E72.06165
G1 X48.531 Y57.028 E73.19469
G1 X48.894 Y57.028 E73.20677
G1 X48.894 Y22.972 E74.33981
G1 X49.257 Y22.972 E74.35189
G1 X49.257 Y57.028 E75.48493
G1 X49.620 Y57.028 E75.49701
G1 X49.620 Y22.972 E76.63005
G1 X49.983 Y22.972 E76.64213
G1 X49.983 Y57.028 E77.77517
G1 X50.346 Y57.028 E77.78725
G1 X50.346 Y22.972 E78.92029
G1 X50.709 Y22.972 E78.93237
G1 X50.709 Y57.028 E80.06541
G1 X51.072 Y57.028 E80.07748
G1 X51.072 Y22.972 E81.21052
G1 X51.435 Y22.972 E81.22260
G1 X51.435 Y57.028 E82.35564
G1 X51.798 Y57.028 E82.36772
G1 X51.798 Y22.972 E83.50076
G1 X52.161 Y22.972 E83.51284
G1 X52.161 Y57.028 E84.64588
G1 X52.524 Y57.028 E84.65796
G1 X52.524 Y22.972 E85.79100
G1 X52.888 Y22.972 E85.80307
G1 X52.888 Y57.028 E86.93612
G1 X53.251 Y57.028 E86.94820
G1 X53.251 Y22.972 E88.08124
G1 X53.614 Y22.972 E88.09331
G1 X53.614 Y57.028 E89.22635
G1 X53.977 Y57.028 E89.23843
G1 X53.977 Y22.972 E90.37147
G1 X54.340 Y22.972 E90.38355
G1 X54.340 Y57.028 E91.51659
M106 S243
