; generated by Slic3r 0.8.4 on 2000-12-31 at 19:13:30

; layer_height = 0.22
; perimeters = 3
; solid_layers = 3
; fill_density = 0.3
; nozzle_diameter = 0.35
; filament_diameter = 1.75
; extrusion_multiplier = 1
; perimeter_speed = 90
; infill_speed = 100
; travel_speed = 140
; scale = 1
; single wall width = 0.37mm

M107
M190 S80 ; wait for bed temperature to be reached
M104 S212 ; set temperature

M109 S212 ; wait for temperature to be reached
G90 ; use absolute coordinates
G21 ; set units to millimeters
G92 E0 ; reset extrusion distance
M82 ; use absolute distances for extrusion
G1 X38.879 Y38.554 F8400.000
G1 F1380.000 E2.80000
G1 X39.289 Y38.084 F8400.000
G1 X39.609 Y37.814
G1 X40.459 Y37.174
G1 X40.709 Y37.014
G1 X40.839 Y36.944
G1 X41.639 Y36.584
G1 X41.949 Y36.484
G1 X42.269 Y36.404
G1 X43.039 Y36.264
G1 X43.589 Y36.214
G1 X43.779 Y36.214
G1 X44.949 Y36.324
G1 X45.109 Y36.354
G1 X45.579 Y36.484
G1 X46.969 Y36.974
G1 X47.399 Y37.164
G1 X48.129 Y37.544
G1 X48.519 Y37.774
G1 X49.029 Y38.134
G1 X50.269 Y39.194
G1 X50.479 Y39.404
G1 X51.159 Y40.314
G1 X51.359 Y40.654
G1 X53.639 Y45.514
G1 X54.059 Y46.694
G1 X54.189 Y47.184
G1 X54.429 Y48.494
G1 X54.449 Y48.784
G1 X54.419 Y50.114
G1 X54.399 Y50.324
G1 X54.289 Y50.894
G1 X54.049 Y51.764
G1 X53.949 Y52.034
G1 X53.479 Y52.964
G1 X53.249 Y53.344
G1 X52.959 Y53.734
G1 X52.599 Y54.164
G1 X51.839 Y54.904
G1 X51.719 Y54.994
G1 X51.469 Y55.164
G1 X50.889 Y55.504
G1 X50.339 Y55.774
G1 X49.469 Y56.134
G1 X49.199 Y56.214
G1 X48.919 Y56.274
G1 X47.929 Y56.424
G1 X47.099 Y56.504
G1 X46.779 Y56.514
G1 X46.729 Y56.514
G1 X46.369 Y56.494
G1 X45.449 Y56.374
G1 X44.359 Y56.124
G1 X43.959 Y56.004
G1 X43.799 Y55.944
G1 X42.059 Y55.124
G1 X41.689 Y54.894
G1 X41.269 Y54.554
G1 X39.269 Y52.684
G1 X39.069 Y52.434
G1 X38.579 Y51.704
G1 X38.379 Y51.304
G1 X37.599 Y49.204
G1 X37.339 Y48.344
G1 X37.319 Y48.244
G1 X36.779 Y46.134
G1 X36.719 Y45.774
G1 X36.709 Y45.604
G1 X36.719 Y44.484
G1 X36.729 Y44.354
G1 X36.789 Y43.954
G1 X37.159 Y42.344
G1 X37.469 Y41.234
G1 X37.779 Y40.424
G1 X38.159 Y39.644
G1 X38.399 Y39.234
G1 X38.847 Y38.599
G1 F1380.000 E0.00000
G92 E0
G1 X42.161 Y41.005 F8400.000
G1 F1380.000 E2.80000
G1 X42.751 Y40.561 F8400.000
G1 X43.077 Y40.417
G1 X43.676 Y40.310
G1 X44.321 Y40.372
G1 X45.507 Y40.781
G1 X46.206 Y41.146
G1 X46.649 Y41.456
G1 X47.436 Y42.131
G1 X47.750 Y42.548
G1 X48.154 Y43.530
G1 X48.370 Y44.143
G1 X48.769 Y44.854
G1 X49.035 Y45.621
G1 X49.223 Y45.950
G1 X49.671 Y46.636
G1 X49.850 Y47.027
G1 X50.194 Y47.999
G1 X50.354 Y48.804
G1 X50.368 Y48.905
G1 X50.356 Y49.749
G1 X50.340 Y49.873
G1 X50.184 Y50.469
G1 X49.887 Y51.038
G1 X49.813 Y51.144
G1 X49.499 Y51.518
G1 X49.331 Y51.682
G1 X49.310 Y51.699
G1 X48.999 Y51.890
G1 X48.717 Y52.038
G1 X48.198 Y52.258
G1 X48.136 Y52.271
G1 X46.753 Y52.437
G1 X46.301 Y52.390
G1 X45.466 Y52.203
G1 X45.372 Y52.175
G1 X45.258 Y52.133
G1 X44.034 Y51.543
G1 X43.474 Y50.998
G1 X43.773 Y50.621
G1 X41.703 Y47.085
G1 X41.288 Y45.491
G1 X40.799 Y45.424
G1 X40.804 Y44.958
G1 X40.880 Y44.970
G1 X41.145 Y43.274
G1 X41.300 Y42.658
G1 X41.581 Y41.932
G1 X41.782 Y41.536
G1 X41.796 Y41.514
G1 X42.129 Y41.050
G1 X41.900 Y40.750
G1 X42.567 Y40.248
G1 X42.971 Y40.069
G1 X43.662 Y39.947
G1 X44.398 Y40.017
G1 X45.640 Y40.445
G1 X46.396 Y40.838
G1 X46.870 Y41.170
G1 X47.701 Y41.882
G1 X48.066 Y42.369
G1 X48.492 Y43.404
G1 X48.700 Y43.995
G1 X49.098 Y44.701
G1 X49.366 Y45.476
G1 X49.525 Y45.753
G1 X49.988 Y46.463
G1 X50.186 Y46.895
G1 X50.539 Y47.892
G1 X50.545 Y47.915
G1 X50.710 Y48.744
G1 X50.729 Y48.882
G1 X50.716 Y49.775
G1 X50.695 Y49.942
G1 X50.519 Y50.605
G1 X50.196 Y51.226
G1 X50.100 Y51.364
G1 X49.763 Y51.763
G1 X49.574 Y51.949
G1 X49.522 Y51.993
G1 X49.177 Y52.204
G1 X48.871 Y52.364
G1 X48.307 Y52.603
G1 X48.200 Y52.626
G1 X46.752 Y52.799
G1 X46.243 Y52.746
G1 X45.374 Y52.552
G1 X45.257 Y52.516
G1 X45.119 Y52.466
G1 X43.822 Y51.840
G1 X42.989 Y51.029
G1 X43.337 Y50.590
G1 X41.366 Y47.224
G1 X41.000 Y45.816
G1 X40.542 Y45.753
G1 X40.439 Y45.419
G1 X40.447 Y44.539
G1 X40.579 Y44.559
G1 X40.791 Y43.202
G1 X40.955 Y42.551
G1 X41.253 Y41.781
G1 X41.468 Y41.359
G1 X41.496 Y41.313
G1 X41.868 Y40.795
G1 X41.634 Y40.503
G1 X42.364 Y39.950
G1 X42.396 Y39.930
G1 X42.870 Y39.720
G1 X43.647 Y39.583
G1 X44.468 Y39.662
G1 X45.773 Y40.110
G1 X46.586 Y40.531
G1 X47.092 Y40.885
G1 X47.966 Y41.635
G1 X48.378 Y42.185
G1 X48.389 Y42.206
G1 X48.830 Y43.277
G1 X49.030 Y43.847
G1 X49.426 Y44.548
G1 X49.698 Y45.330
G1 X49.828 Y45.556
G1 X50.306 Y46.290
G1 X50.522 Y46.762
G1 X50.883 Y47.784
G1 X50.897 Y47.833
G1 X51.065 Y48.683
G1 X51.090 Y48.859
G1 X51.077 Y49.801
G1 X51.050 Y50.011
G1 X50.855 Y50.741
G1 X50.505 Y51.413
G1 X50.386 Y51.584
G1 X50.028 Y52.009
G1 X49.816 Y52.216
G1 X49.733 Y52.286
G1 X49.355 Y52.517
G1 X49.025 Y52.690
G1 X48.417 Y52.948
G1 X48.265 Y52.981
G1 X46.781 Y53.159
G1 X46.737 Y53.160
G1 X46.185 Y53.103
G1 X45.281 Y52.901
G1 X45.141 Y52.858
G1 X44.979 Y52.798
G1 X43.648 Y52.156
G1 X43.601 Y52.126
G1 X42.031 Y50.577
G1 X42.144 Y50.393
G1 X42.858 Y50.614
G1 X42.901 Y50.559
G1 X41.030 Y47.363
G1 X40.712 Y46.140
G1 X40.265 Y46.079
G1 X40.078 Y45.471
G1 X40.086 Y44.658
G1 X40.096 Y44.595
G1 X40.199 Y44.137
G1 X40.278 Y44.149
G1 X40.437 Y43.130
G1 X40.610 Y42.444
G1 X40.925 Y41.631
G1 X41.153 Y41.181
G1 X41.196 Y41.112
G1 X41.602 Y40.548
G1 F1380.000 E0.00000
G92 E0
G1 X41.791 Y50.274 F8400.000
G1 F1380.000 E2.80000
G1 X41.808 Y50.260 F8400.000
G1 X41.785 Y50.448
G1 X41.791 Y50.274
G1 X41.575 Y50.078
G1 X41.568 Y50.046
G1 X41.465 Y49.966
G1 X41.467 Y49.941
G1 X41.203 Y49.287
G1 X40.811 Y48.212
G1 X40.714 Y47.891
G1 X40.592 Y47.421
G1 X40.574 Y47.409
G1 X40.541 Y47.275
G1 F1380.000 E0.00000
G92 E0
G1 X43.839 Y40.674 F8400.000
G1 F1380.000 E2.80000
G1 X43.544 Y40.674 F8400.000
G1 X42.565 Y41.042
G1 X45.301 Y41.042
G1 X46.080 Y41.409
G1 X42.168 Y41.409
G1 X41.917 Y41.777
G1 X46.617 Y41.777
G1 X47.046 Y42.145
G1 X41.738 Y42.145
G1 X41.595 Y42.513
G1 X47.419 Y42.513
G1 X47.644 Y42.880
G1 X41.468 Y42.880
G1 X41.376 Y43.248
G1 X47.795 Y43.248
G1 X47.947 Y43.616
G1 X41.309 Y43.616
G1 X41.252 Y43.984
G1 X48.079 Y43.984
G1 X48.221 Y44.351
G1 X41.195 Y44.351
G1 X41.137 Y44.719
G1 X48.426 Y44.719
G1 X48.615 Y45.087
G1 X41.080 Y45.087
G1 X41.504 Y45.455
G1 X48.743 Y45.455
G1 X48.883 Y45.822
G1 X41.600 Y45.822
G1 X41.695 Y46.190
G1 X49.096 Y46.190
G1 X49.337 Y46.558
G1 X41.791 Y46.558
G1 X41.887 Y46.926
G1 X49.554 Y46.926
G1 X49.709 Y47.293
G1 X42.096 Y47.293
G1 X42.311 Y47.661
G1 X49.839 Y47.661
G1 X49.969 Y48.029
G1 X42.526 Y48.029
G1 X42.742 Y48.397
G1 X50.051 Y48.397
G1 X50.123 Y48.764
G1 X42.957 Y48.764
G1 X43.172 Y49.132
G1 X50.152 Y49.132
G1 X50.146 Y49.500
G1 X43.387 Y49.500
G1 X43.603 Y49.868
G1 X50.108 Y49.868
G1 X50.017 Y50.235
G1 X43.818 Y50.235
G1 X44.033 Y50.603
G1 X49.854 Y50.603
G1 X49.627 Y50.971
G1 X43.816 Y50.971
G1 X44.291 Y51.339
G1 X49.313 Y51.339
G1 X48.719 Y51.706
G1 X45.056 Y51.706
G1 X46.606 Y52.074
G1 X46.902 Y52.074
M106 S255
M104 S208 ; set temperature
G1 F1380.000 E0.00000
G92 E0
G1 Z0.220 F8400.000
G1 X46.791 Y52.475
G1 F1380.000 E2.80000
G1 X46.267 Y52.422 F1378.574 E2.81751
G1 X45.880 Y52.335 E2.83072
G1 X45.373 Y52.179 E2.84837
G1 X44.782 Y51.962 E2.86929
G1 X44.297 Y51.729 E2.88721
G1 X44.034 Y51.558 E2.89765
G1 X42.824 Y50.413 E2.95307
G1 X42.562 Y50.114 E2.96628
G1 X42.323 Y49.787 E2.97977
G1 X42.215 Y49.596 E2.98708
G1 X41.939 Y49.018 E3.00838
G1 X41.885 Y48.824 E3.01507
G1 X41.476 Y47.732 E3.05388
G1 X41.446 Y47.629 E3.05745
G1 X41.268 Y46.804 E3.08551
G1 X40.906 Y45.781 E3.12161
G1 X40.821 Y45.367 E3.13569
G1 X40.804 Y45.122 E3.14386
G1 X40.893 Y44.598 E3.16155
G1 X40.978 Y44.222 E3.17435
G1 X41.347 Y42.846 E3.22178
G1 X41.667 Y42.017 E3.25133
G1 X41.817 Y41.721 E3.26238
G1 X41.978 Y41.461 E3.27254
G1 X42.252 Y41.080 E3.28814
G1 X42.638 Y40.768 E3.30467
G1 X42.815 Y40.656 E3.31162
G1 X43.110 Y40.526 E3.32236
G1 X43.167 Y40.506 E3.32436
G1 X43.724 Y40.412 E3.34318
G1 X44.437 Y40.491 E3.36704
G1 X44.992 Y40.659 E3.38633
G1 X44.992 Y40.659 E3.38633
G1 X45.206 Y40.724 E3.39377
G1 X46.259 Y41.243 E3.43283
G1 X47.136 Y41.865 E3.46860
G1 X47.455 Y42.186 E3.48365
G1 X47.778 Y42.629 E3.50191
G1 X47.952 Y42.973 E3.51473
G1 X48.054 Y43.220 E3.52361
G1 X48.366 Y44.134 E3.55576
G1 X48.403 Y44.223 E3.55895
G1 X48.814 Y44.911 E3.58562
G1 X49.086 Y45.693 E3.61317
G1 X49.194 Y45.884 E3.62047
G1 X49.731 Y46.648 E3.65153
G1 X49.853 Y46.928 E3.66169
G1 X50.221 Y47.965 E3.69832
G1 X50.291 Y48.220 E3.70710
G1 X50.383 Y48.687 E3.72294
G1 X50.461 Y49.228 E3.74113
G1 X50.458 Y49.376 E3.74605
G1 X50.386 Y49.940 E3.76496
G1 X50.223 Y50.533 E3.78541
G1 X49.920 Y51.119 E3.80738
G1 X49.740 Y51.369 E3.81765
G1 X49.699 Y51.416 E3.81970
G1 X49.473 Y51.638 E3.83026
G1 X49.259 Y51.818 E3.83955
G1 X48.365 Y52.286 E3.87312
G1 X47.812 Y52.407 E3.89197
G1 X47.406 Y52.456 E3.90556
G1 X46.846 Y52.473 E3.92421
G1 X46.778 Y52.836 F8400.000
G1 X46.209 Y52.778 F1378.574 E3.94324
G1 X45.787 Y52.684 E3.95763
G1 X45.257 Y52.521 E3.97608
G1 X44.643 Y52.295 E3.99785
G1 X44.117 Y52.042 E4.01727
G1 X43.812 Y51.844 E4.02936
G1 X42.560 Y50.659 E4.08672
G1 X42.279 Y50.338 E4.10091
G1 X42.021 Y49.987 E4.11542
G1 X41.894 Y49.761 E4.12405
G1 X41.602 Y49.148 E4.14662
G1 X41.541 Y48.935 E4.15398
G1 X41.134 Y47.847 E4.19264
G1 X41.096 Y47.718 E4.19713
G1 X40.920 Y46.902 E4.22487
G1 X40.558 Y45.878 E4.26105
G1 X40.463 Y45.416 E4.27672
G1 X40.441 Y45.097 E4.28737
G1 X40.628 Y44.133 E4.32004
G1 X41.002 Y42.739 E4.36807
G1 X41.338 Y41.868 E4.39911
G1 X41.502 Y41.543 E4.41123
G1 X41.679 Y41.261 E4.42231
G1 X41.988 Y40.831 E4.43993
G1 X42.433 Y40.470 E4.45897
G1 X42.645 Y40.337 E4.46730
G1 X42.978 Y40.190 E4.47942
G1 X43.080 Y40.155 E4.48300
G1 X43.710 Y40.049 E4.50425
G1 X44.513 Y40.137 E4.53113
G1 X45.333 Y40.385 E4.55966
G1 X46.442 Y40.931 E4.60077
G1 X47.366 Y41.585 E4.63843
G1 X47.730 Y41.951 E4.65560
G1 X48.088 Y42.442 E4.67582
G1 X48.280 Y42.823 E4.69002
G1 X48.392 Y43.093 E4.69973
G1 X48.703 Y44.007 E4.73185
G1 X48.726 Y44.060 E4.73379
G1 X49.142 Y44.756 E4.76076
G1 X49.417 Y45.548 E4.78865
G1 X49.496 Y45.687 E4.79397
G1 X50.047 Y46.470 E4.82583
G1 X50.189 Y46.795 E4.83762
G1 X50.566 Y47.857 E4.87512
G1 X50.642 Y48.138 E4.88478
G1 X50.739 Y48.626 E4.90136
G1 X50.822 Y49.205 E4.92081
G1 X50.819 Y49.402 E4.92736
G1 X50.741 Y50.009 E4.94772
G1 X50.559 Y50.668 E4.97048
G1 X50.236 Y51.294 E4.99391
G1 X50.221 Y51.319 E4.99487
G1 X50.023 Y51.594 E5.00615
G1 X49.962 Y51.664 E5.00923
G1 X49.715 Y51.905 E5.02072
G1 X49.469 Y52.113 E5.03144
G1 X49.442 Y52.129 E5.03249
G1 X48.493 Y52.626 E5.06813
G1 X47.876 Y52.762 E5.08915
G1 X47.430 Y52.816 E5.10410
G1 X46.834 Y52.834 E5.12394
G1 X46.766 Y53.197 F8400.000
G1 X46.151 Y53.135 F1378.574 E5.14451
G1 X45.695 Y53.033 E5.16007
G1 X45.142 Y52.863 E5.17932
G1 X44.503 Y52.628 E5.20195
G1 X43.937 Y52.355 E5.22286
G1 X43.591 Y52.131 E5.23659
G1 X42.296 Y50.905 E5.29589
G1 X41.995 Y50.562 E5.31107
G1 X41.719 Y50.186 E5.32660
G1 X41.572 Y49.926 E5.33655
G1 X41.264 Y49.279 E5.36040
G1 X41.198 Y49.047 E5.36842
G1 X40.792 Y47.962 E5.40693
G1 X40.747 Y47.807 E5.41233
G1 X40.573 Y47.001 E5.43977
G1 X40.209 Y45.974 E5.47601
G1 X40.105 Y45.465 E5.49328
G1 X40.078 Y45.067 E5.50657
G1 X40.279 Y44.043 E5.54127
G1 X40.657 Y42.632 E5.58989
G1 X41.009 Y41.719 E5.62241
G1 X41.188 Y41.366 E5.63561
G1 X41.379 Y41.060 E5.64760
G1 X41.726 Y40.580 E5.66731
G1 X42.228 Y40.173 E5.68881
G1 X42.475 Y40.018 E5.69851
G1 X42.846 Y39.854 E5.71201
G1 X42.992 Y39.803 E5.71716
G1 X43.695 Y39.685 E5.74086
G1 X44.588 Y39.783 E5.77075
G1 X45.460 Y40.047 E5.80108
G1 X46.625 Y40.620 E5.84425
G1 X47.595 Y41.306 E5.88379
G1 X48.005 Y41.716 E5.90307
G1 X48.398 Y42.255 E5.92527
G1 X48.609 Y42.673 E5.94083
G1 X48.729 Y42.966 E5.95138
G1 X49.041 Y43.879 E5.98348
G1 X49.049 Y43.898 E5.98417
G1 X49.470 Y44.601 E6.01144
G1 X49.749 Y45.403 E6.03966
G1 X49.799 Y45.490 E6.04301
G1 X50.363 Y46.293 E6.07565
G1 X50.524 Y46.663 E6.08908
G1 X50.910 Y47.749 E6.12745
G1 X50.993 Y48.055 E6.13799
G1 X51.095 Y48.566 E6.15531
G1 X51.183 Y49.182 E6.17602
G1 X51.179 Y49.427 E6.18419
G1 X51.096 Y50.078 E6.20601
G1 X50.895 Y50.804 E6.23108
G1 X50.551 Y51.470 E6.25601
G1 X50.522 Y51.517 E6.25786
G1 X50.306 Y51.818 E6.27018
G1 X50.224 Y51.911 E6.27430
G1 X49.958 Y52.172 E6.28670
G1 X49.680 Y52.406 E6.29879
G1 X49.620 Y52.443 E6.30114
G1 X48.620 Y52.966 E6.33867
G1 X47.940 Y53.117 E6.36186
G1 X47.453 Y53.176 E6.37818
G1 X46.821 Y53.196 E6.39921
G1 F1380.000 E3.59921
G92 E0
G1 X50.100 Y49.103 F8400.000
G1 F1380.000 E2.80000
G1 X50.100 Y49.405 F1378.574 E2.81003
G1 X49.727 Y50.854 E2.85981
G1 X49.727 Y47.505 E2.97125
G1 X49.355 Y46.594 E3.00399
G1 X49.355 Y51.390 E3.16358
G1 X48.983 Y51.703 E3.17975
G1 X48.983 Y46.064 E3.36737
G1 X48.611 Y45.276 E3.39635
G1 X48.611 Y51.898 E3.61666
G1 X48.239 Y52.092 E3.63063
G1 X48.239 Y44.504 E3.88310
G1 X47.867 Y43.629 E3.91473
G1 X47.867 Y52.173 E4.19900
G1 X47.494 Y52.229 E4.21152
G1 X47.494 Y42.719 E4.52793
G1 X47.122 Y42.214 E4.54879
G1 X47.122 Y52.251 E4.88271
G1 X46.750 Y52.256 E4.89510
G1 X46.750 Y41.885 E5.24012
G1 X46.378 Y41.620 E5.25532
G1 X46.378 Y52.218 E5.60791
G1 X46.006 Y52.141 E5.62055
G1 X46.006 Y41.374 E5.97877
G1 X45.633 Y41.182 E5.99271
G1 X45.633 Y52.029 E6.35361
G1 X45.261 Y51.901 E6.36671
G1 X45.261 Y40.998 E6.72947
G1 X44.889 Y40.857 E6.74270
G1 X44.889 Y51.760 E7.10545
G1 X44.517 Y51.582 E7.11918
G1 X44.517 Y40.745 E7.47973
G1 X44.145 Y40.674 E7.49233
G1 X44.145 Y51.313 E7.84632
G1 X43.772 Y50.958 E7.86343
G1 X43.772 Y40.632 E8.20698
G1 X43.400 Y40.687 E8.21949
G1 X43.400 Y50.620 E8.54995
G1 X43.028 Y50.235 E8.56776
G1 X43.028 Y40.809 E8.88135
G1 X42.656 Y41.067 E8.89642
G1 X42.656 Y49.779 E9.18625
G1 X42.284 Y49.048 E9.21352
G1 X42.284 Y41.507 E9.46440
G1 X41.911 Y42.236 E9.49162
G1 X41.911 Y48.013 E9.68384
G1 X41.539 Y46.637 E9.73126
G1 X41.539 Y43.412 E9.83858
G1 X41.167 Y45.000 E9.89283
G1 X41.167 Y45.295 E9.90267
G1 F1380.000 E7.10267
G92 E0
G1 Z0.440 F8400.000
G1 X40.848 Y45.364
G1 F1380.000 E2.80000
G1 X40.836 Y45.125 F1395.069 E2.80798
G1 X40.952 Y44.578 E2.82657
G1 X41.395 Y43.034 E2.88003
G1 X41.807 Y41.993 E2.91728
G1 X41.851 Y41.905 E2.92055
G1 X42.161 Y41.409 E2.94001
G1 X42.342 Y41.159 E2.95028
G1 X42.683 Y40.877 E2.96501
G1 X42.893 Y40.745 E2.97326
G1 X43.099 Y40.653 E2.98075
G1 X43.282 Y40.591 E2.98718
G1 X43.773 Y40.514 E3.00373
G1 X44.505 Y40.588 E3.02820
G1 X45.186 Y40.794 E3.05186
G1 X46.269 Y41.327 E3.09201
G1 X47.120 Y41.924 E3.12660
G1 X47.482 Y42.265 E3.14314
G1 X47.805 Y42.740 E3.16227
G1 X48.098 Y43.320 E3.18390
G1 X48.353 Y44.061 E3.20996
G1 X48.453 Y44.304 E3.21870
G1 X48.813 Y44.904 E3.24197
G1 X48.846 Y44.954 E3.24397
G1 X48.859 Y45.001 E3.24562
G1 X49.163 Y45.846 E3.27547
G1 X49.863 Y46.849 E3.31616
G1 X50.248 Y47.930 E3.35436
G1 X50.387 Y48.442 E3.37201
G1 X50.413 Y48.570 E3.37633
G1 X50.523 Y49.318 E3.40151
G1 X50.432 Y50.007 E3.42462
G1 X50.264 Y50.596 E3.44499
G1 X50.048 Y51.013 E3.46060
G1 X49.938 Y51.196 E3.46774
G1 X49.814 Y51.368 E3.47477
G1 X49.633 Y51.576 E3.48396
G1 X49.614 Y51.594 E3.48482
G1 X49.314 Y51.843 E3.49779
G1 X48.527 Y52.254 E3.52732
G1 X48.375 Y52.313 E3.53275
G1 X47.748 Y52.465 E3.55423
G1 X47.728 Y52.469 E3.55491
G1 X46.814 Y52.512 E3.58536
G1 X46.257 Y52.456 E3.60396
G1 X45.373 Y52.184 E3.63474
G1 X44.509 Y51.863 E3.66540
G1 X44.482 Y51.848 E3.66642
G1 X44.024 Y51.563 E3.68439
G1 X42.952 Y50.558 E3.73327
G1 X42.447 Y49.984 E3.75868
G1 X42.262 Y49.718 E3.76947
G1 X41.971 Y49.125 E3.79145
G1 X41.781 Y48.455 E3.81463
G1 X41.579 Y47.915 E3.83381
G1 X41.429 Y47.402 E3.85158
G1 X41.314 Y46.870 E3.86968
G1 X40.937 Y45.805 E3.90729
G1 X40.859 Y45.418 E3.92040
G1 X40.490 Y45.414 F8400.000
G1 X40.474 Y45.092 F1395.069 E3.93112
G1 X40.604 Y44.483 E3.95183
G1 X41.050 Y42.927 E4.00569
G1 X41.478 Y41.844 E4.04443
G1 X41.537 Y41.727 E4.04877
G1 X41.861 Y41.208 E4.06915
G1 X42.080 Y40.908 E4.08150
G1 X42.470 Y40.584 E4.09837
G1 X42.723 Y40.426 E4.10832
G1 X42.967 Y40.317 E4.11719
G1 X43.195 Y40.239 E4.12520
G1 X43.758 Y40.150 E4.14415
G1 X44.572 Y40.232 E4.17139
G1 X45.311 Y40.454 E4.19704
