; generated by Slic3r 0.8.4 on 2012-07-02 at 00:00:36

; layer_height = 0.22
; perimeters = 4
; solid_layers = 4
; fill_density = 0.5
; nozzle_diameter = 0.35
; filament_diameter = 1.75
; extrusion_multiplier = 1
; perimeter_speed = 180
; infill_speed = 200
; travel_speed = 600
; scale = 1
; single wall width = 0.37mm

M107
M190 S80 ; wait for bed temperature to be reached
M104 S212 ; set temperature

M109 S212 ; wait for temperature to be reached
G90 ; use absolute coordinates
G21 ; set units to millimeters
G92 E0 ; reset extrusion distance
M82 ; use absolute distances for extrusion
G1 X15.830 Y16.030 F36000.000
G1 F1200.000 E3.20000
G1 X18.220 Y13.830 F36000.000
G1 X20.580 Y12.030
G1 X23.100 Y10.440
G1 X25.750 Y9.070
G1 X28.220 Y8.050
G1 X31.320 Y7.070
G1 X33.940 Y6.490
G1 X37.160 Y6.070
G1 X37.370 Y6.060
G1 X37.380 Y6.060
G1 X39.840 Y5.950
G1 X42.820 Y6.070
G1 X46.050 Y6.490
G1 X48.960 Y7.150
G1 X51.770 Y8.050
G1 X54.240 Y9.070
G1 X57.150 Y10.590
G1 X59.650 Y12.200
G1 X61.770 Y13.830
G1 X64.160 Y16.030
G1 X66.160 Y18.220
G1 X67.960 Y20.580
G1 X69.540 Y23.080
G1 X70.920 Y25.750
G1 X71.940 Y28.220
G1 X72.840 Y31.030
G1 X73.540 Y34.230
G1 X73.920 Y37.170
G1 X74.040 Y40.140
G1 X73.920 Y42.820
G1 X73.540 Y45.760
G1 X72.840 Y48.960
G1 X71.960 Y51.710
G1 X70.920 Y54.240
G1 X69.400 Y57.150
G1 X67.790 Y59.650
G1 X66.160 Y61.770
G1 X64.160 Y63.960
G1 X64.070 Y64.070
G1 X63.920 Y64.220
G1 X61.770 Y66.160
G1 X59.410 Y67.960
G1 X56.890 Y69.550
G1 X54.240 Y70.920
G1 X51.770 Y71.940
G1 X48.960 Y72.840
G1 X45.760 Y73.540
G1 X42.830 Y73.920
G1 X42.620 Y73.930
G1 X42.610 Y73.930
G1 X40.140 Y74.040
G1 X37.170 Y73.920
G1 X34.230 Y73.540
G1 X31.030 Y72.840
G1 X28.200 Y71.930
G1 X25.750 Y70.920
G1 X22.840 Y69.400
G1 X20.340 Y67.790
G1 X18.220 Y66.160
G1 X15.830 Y63.960
G1 X13.830 Y61.770
G1 X12.030 Y59.410
G1 X10.440 Y56.890
G1 X9.060 Y54.210
G1 X7.960 Y51.510
G1 X7.070 Y48.670
G1 X6.490 Y46.050
G1 X6.070 Y42.820
G1 X5.950 Y39.840
G1 X6.070 Y37.170
G1 X6.490 Y33.940
G1 X7.150 Y31.030
G1 X8.040 Y28.250
G1 X8.120 Y28.050
G1 X8.140 Y28.010
G1 X9.200 Y25.480
G1 X10.590 Y22.840
G1 X12.200 Y20.340
G1 X13.830 Y18.220
G1 X15.793 Y16.071
G1 F1200.000 E0.00000
G92 E0
G1 X19.085 Y19.085 F36000.000
G1 F1200.000 E3.20000
G1 X20.829 Y17.488 F36000.000
G1 X20.829 Y17.488
G1 X20.988 Y17.342
G1 X22.683 Y16.042
G1 X22.683 Y16.042
G1 X23.035 Y15.771
G1 X25.211 Y14.385
G1 X27.500 Y13.194
G1 X29.884 Y12.206
G1 X32.139 Y11.495
G1 X32.139 Y11.495
G1 X32.345 Y11.430
G1 X34.430 Y10.968
G1 X34.430 Y10.968
G1 X34.864 Y10.872
G1 X37.422 Y10.535
G1 X40.000 Y10.422
G1 X42.578 Y10.535
G1 X45.136 Y10.872
G1 X47.655 Y11.430
G1 X50.116 Y12.206
G1 X52.500 Y13.194
G1 X54.789 Y14.385
G1 X56.965 Y15.771
G1 X59.012 Y17.342
G1 X60.915 Y19.085
G1 X62.512 Y20.829
G1 X62.512 Y20.829
G1 X62.658 Y20.988
G1 X64.229 Y23.035
G1 X65.615 Y25.211
G1 X66.806 Y27.500
G1 X67.794 Y29.884
G1 X68.505 Y32.139
G1 X68.505 Y32.139
G1 X68.570 Y32.345
G1 X69.128 Y34.864
G1 X69.465 Y37.422
G1 X69.578 Y40.000
G1 X69.465 Y42.578
G1 X69.128 Y45.136
G1 X68.570 Y47.655
G1 X67.794 Y50.116
G1 X66.806 Y52.500
G1 X65.615 Y54.789
G1 X64.229 Y56.965
G1 X62.658 Y59.012
G1 X60.915 Y60.915
G1 X59.171 Y62.512
G1 X59.171 Y62.512
G1 X59.012 Y62.658
G1 X56.965 Y64.229
G1 X54.970 Y65.499
G1 X54.970 Y65.499
G1 X54.789 Y65.615
G1 X52.500 Y66.806
G1 X50.116 Y67.794
G1 X47.655 Y68.570
G1 X45.136 Y69.128
G1 X42.578 Y69.465
G1 X40.000 Y69.578
G1 X37.422 Y69.465
G1 X34.864 Y69.128
G1 X32.345 Y68.570
G1 X29.884 Y67.794
G1 X27.500 Y66.806
G1 X25.211 Y65.615
G1 X23.035 Y64.229
G1 X20.988 Y62.658
G1 X19.085 Y60.915
G1 X17.488 Y59.171
G1 X17.488 Y59.171
G1 X17.342 Y59.012
G1 X15.771 Y56.965
G1 X14.385 Y54.789
G1 X13.194 Y52.500
G1 X12.206 Y50.116
G1 X11.430 Y47.655
G1 X10.968 Y45.570
G1 X10.968 Y45.570
G1 X10.872 Y45.136
G1 X10.535 Y42.578
G1 X10.422 Y40.000
G1 X10.535 Y37.422
G1 X10.872 Y34.864
G1 X11.430 Y32.345
G1 X12.206 Y29.884
G1 X13.194 Y27.500
G1 X14.385 Y25.211
G1 X15.771 Y23.035
G1 X17.342 Y20.988
G1 X19.048 Y19.126
G1 F1200.000 E0.00000
G92 E0
G1 X16.374 Y58.978 F36000.000
G1 F1200.000 E3.20000
G1 X16.627 Y58.766 F36000.000
G1 X18.830 Y61.170
G1 X20.756 Y62.934
G1 X22.828 Y64.524
G1 X25.031 Y65.928
G1 X27.347 Y67.134
G1 X29.760 Y68.133
G1 X32.251 Y68.918
G1 X32.477 Y68.968
G1 X32.477 Y68.968
G1 X34.801 Y69.484
G1 X37.391 Y69.825
G1 X40.000 Y69.939
G1 X42.609 Y69.825
G1 X42.838 Y69.795
G1 X42.838 Y69.795
G1 X45.199 Y69.484
G1 X47.749 Y68.918
G1 X50.240 Y68.133
G1 X52.653 Y67.134
G1 X54.686 Y66.075
G1 X54.988 Y66.240
G1 X54.986 Y66.354
G1 X52.816 Y67.484
G1 X50.372 Y68.497
G1 X50.184 Y68.556
G1 X50.184 Y68.556
G1 X47.849 Y69.292
G1 X45.266 Y69.865
G1 X42.643 Y70.210
G1 X42.258 Y70.227
G1 X42.258 Y70.227
G1 X40.000 Y70.325
G1 X37.357 Y70.210
G1 X34.734 Y69.865
G1 X32.151 Y69.292
G1 X29.628 Y68.497
G1 X27.184 Y67.484
G1 X24.837 Y66.263
G1 X22.606 Y64.841
G1 X20.507 Y63.231
G1 X20.362 Y63.097
G1 X20.362 Y63.097
G1 X18.557 Y61.443
G1 X16.769 Y59.493
G1 X16.408 Y59.022
G1 F1200.000 E0.00000
G92 E0
G1 X54.422 Y66.276 F36000.000
G1 F1200.000 E3.20000
G1 X57.172 Y64.524 F36000.000
G1 X59.153 Y63.004
G1 X59.160 Y63.011
G1 X61.170 Y61.170
G1 X62.934 Y59.244
G1 X64.524 Y57.172
G1 X65.928 Y54.969
G1 X67.134 Y52.653
G1 X68.133 Y50.240
G1 X68.918 Y47.749
G1 X68.968 Y47.523
G1 X68.968 Y47.523
G1 X69.484 Y45.199
G1 X69.825 Y42.609
G1 X69.939 Y40.000
G1 X69.825 Y37.391
G1 X69.795 Y37.162
G1 X69.795 Y37.162
G1 X69.484 Y34.801
G1 X68.974 Y32.500
G1 X69.369 Y32.500
G1 X69.865 Y34.734
G1 X70.210 Y37.357
G1 X70.227 Y37.742
G1 X70.227 Y37.742
G1 X70.325 Y40.000
G1 X70.210 Y42.643
G1 X69.865 Y45.266
G1 X69.292 Y47.849
G1 X68.497 Y50.372
G1 X67.484 Y52.816
G1 X66.263 Y55.163
G1 X64.841 Y57.394
G1 X63.231 Y59.493
G1 X61.443 Y61.443
G1 X59.493 Y63.231
G1 X59.155 Y63.490
G1 X59.155 Y63.490
G1 X57.394 Y64.841
G1 X55.163 Y66.263
G1 X54.587 Y66.562
G1 X54.449 Y66.324
G1 F1200.000 E0.00000
G92 E0
G1 X12.516 Y52.816 F36000.000
G1 F1200.000 E3.20000
G1 X11.503 Y50.372 F36000.000
G1 X10.708 Y47.849
G1 X10.135 Y45.266
G1 X9.790 Y42.643
G1 X9.675 Y40.000
G1 X9.790 Y37.357
G1 X10.135 Y34.734
G1 X10.708 Y32.151
G1 X10.767 Y31.963
G1 X10.767 Y31.963
G1 X11.503 Y29.628
G1 X11.625 Y29.335
G1 X11.625 Y29.335
G1 X12.516 Y27.184
G1 X13.737 Y24.837
G1 X15.159 Y22.606
G1 X16.769 Y20.507
G1 X18.557 Y18.557
G1 X20.507 Y16.769
G1 X21.022 Y16.374
G1 X21.234 Y16.627
G1 X18.830 Y18.830
G1 X18.674 Y19.001
G1 X18.674 Y19.001
G1 X17.066 Y20.756
G1 X15.476 Y22.828
G1 X14.072 Y25.031
G1 X12.866 Y27.347
G1 X11.867 Y29.760
G1 X11.082 Y32.251
G1 X10.516 Y34.801
G1 X10.465 Y35.187
G1 X10.465 Y35.187
G1 X10.175 Y37.391
G1 X10.061 Y40.000
G1 X10.175 Y42.609
G1 X10.516 Y45.199
G1 X11.082 Y47.749
G1 X11.867 Y50.240
G1 X12.866 Y52.653
G1 X14.072 Y54.969
G1 X15.476 Y57.172
G1 X16.839 Y58.948
G1 X16.661 Y59.352
G1 X15.159 Y57.394
G1 X13.737 Y55.163
G1 X12.541 Y52.865
G1 F1200.000 E0.00000
G92 E0
G1 X63.161 Y21.052 F36000.000
G1 F1200.000 E3.20000
G1 X63.339 Y20.648 F36000.000
G1 X64.841 Y22.606
G1 X66.263 Y24.837
G1 X67.484 Y27.184
G1 X68.497 Y29.628
G1 X68.556 Y29.816
G1 X68.556 Y29.816
G1 X69.292 Y32.151
G1 X69.433 Y32.785
G1 X69.114 Y32.871
G1 X68.133 Y29.760
G1 X67.134 Y27.347
G1 X65.928 Y25.031
G1 X64.524 Y22.828
G1 X63.195 Y21.095
G1 F1200.000 E0.00000
G92 E0
G1 X32.500 Y11.026 F36000.000
G1 F1200.000 E3.20000
G1 X32.500 Y10.631 F36000.000
G1 X34.734 Y10.135
G1 X37.357 Y9.790
G1 X40.000 Y9.675
G1 X42.643 Y9.790
G1 X45.266 Y10.135
G1 X47.849 Y10.708
G1 X48.506 Y10.915
G1 X48.506 Y10.915
G1 X50.372 Y11.503
G1 X52.816 Y12.516
G1 X55.163 Y13.737
G1 X57.394 Y15.159
G1 X59.493 Y16.769
G1 X61.443 Y18.557
G1 X63.231 Y20.507
G1 X63.626 Y21.022
G1 X63.373 Y21.234
G1 X61.170 Y18.830
G1 X61.127 Y18.791
G1 X61.127 Y18.791
G1 X59.244 Y17.066
G1 X57.172 Y15.476
G1 X54.969 Y14.072
G1 X52.653 Y12.866
G1 X50.240 Y11.867
G1 X47.749 Y11.082
G1 X45.199 Y10.516
G1 X44.813 Y10.465
G1 X44.813 Y10.465
G1 X42.609 Y10.175
G1 X40.000 Y10.061
G1 X37.391 Y10.175
G1 X34.801 Y10.516
G1 X32.554 Y11.014
G1 X32.871 Y10.886
G1 X29.760 Y11.867
G1 X27.347 Y12.866
G1 X25.031 Y14.072
G1 X22.828 Y15.476
G1 X22.560 Y15.681
G1 X22.560 Y15.681
G1 X21.052 Y16.839
G1 X20.648 Y16.661
G1 X22.606 Y15.159
G1 X24.837 Y13.737
G1 X27.184 Y12.516
G1 X29.628 Y11.503
G1 X32.151 Y10.708
G1 X32.785 Y10.567
G1 X32.856 Y10.833
G1 X32.266 Y10.313
G1 X34.671 Y9.780
G1 X37.326 Y9.430
G1 X40.000 Y9.314
G1 X42.674 Y9.430
G1 X45.329 Y9.780
G1 X47.942 Y10.359
G1 X48.145 Y10.423
G1 X48.145 Y10.423
G1 X50.495 Y11.164
G1 X50.805 Y11.293
G1 X50.805 Y11.293
G1 X52.969 Y12.189
G1 X55.343 Y13.425
G1 X55.523 Y13.539
G1 X55.523 Y13.539
G1 X57.601 Y14.863
G1 X59.725 Y16.493
G1 X61.699 Y18.301
G1 X63.507 Y20.275
G1 X63.776 Y20.625
G1 X63.776 Y20.625
G1 X65.137 Y22.399
G1 X65.251 Y22.579
G1 X65.251 Y22.579
G1 X66.575 Y24.657
G1 X67.811 Y27.031
G1 X67.998 Y27.482
G1 X67.998 Y27.482
G1 X68.836 Y29.505
G1 X69.641 Y32.058
G1 X69.687 Y32.266
G1 X69.687 Y32.266
G1 X70.220 Y34.671
G1 X70.570 Y37.326
G1 X70.686 Y40.000
G1 X70.570 Y42.674
G1 X70.220 Y45.329
G1 X69.641 Y47.942
G1 X68.854 Y50.438
G1 X68.860 Y50.438
G1 X67.811 Y52.969
G1 X66.575 Y55.343
G1 X65.137 Y57.601
G1 X63.507 Y59.725
G1 X61.699 Y61.699
G1 X59.725 Y63.507
G1 X57.601 Y65.137
G1 X55.343 Y66.575
G1 X52.969 Y67.811
G1 X50.495 Y68.836
G1 X47.942 Y69.641
G1 X47.734 Y69.687
G1 X47.734 Y69.687
G1 X45.329 Y70.220
G1 X42.674 Y70.570
G1 X40.000 Y70.686
G1 X37.326 Y70.570
G1 X34.671 Y70.220
G1 X32.058 Y69.641
G1 X29.505 Y68.836
G1 X29.195 Y68.707
G1 X29.195 Y68.707
G1 X27.031 Y67.811
G1 X24.657 Y66.575
G1 X22.399 Y65.137
G1 X20.275 Y63.507
G1 X18.301 Y61.699
G1 X16.493 Y59.725
G1 X16.363 Y59.556
G1 X16.363 Y59.556
G1 X14.863 Y57.601
G1 X13.425 Y55.343
G1 X12.189 Y52.969
G1 X12.002 Y52.518
G1 X12.002 Y52.518
G1 X11.164 Y50.495
G1 X11.100 Y50.292
G1 X11.100 Y50.292
G1 X10.359 Y47.942
G1 X9.780 Y45.329
G1 X9.430 Y42.674
G1 X9.314 Y40.000
G1 X9.430 Y37.326
G1 X9.780 Y34.671
G1 X10.359 Y32.058
G1 X11.164 Y29.505
G1 X12.189 Y27.031
G1 X13.425 Y24.657
G1 X13.539 Y24.477
G1 X13.539 Y24.477
G1 X14.863 Y22.399
G1 X16.493 Y20.275
G1 X18.301 Y18.301
G1 X20.275 Y16.493
G1 X22.399 Y14.863
G1 X24.657 Y13.425
G1 X24.846 Y13.327
G1 X24.846 Y13.327
G1 X27.031 Y12.189
G1 X29.505 Y11.164
G1 X29.708 Y11.100
G1 X29.708 Y11.100
G1 X32.058 Y10.359
G1 X32.212 Y10.325
M106 S255
G1 F1200.000 E0.00000
G92 E0
G1 Z0.220 F36000.000
G1 X32.270 Y11.151
G1 F1200.000 E3.20000
G1 X34.814 Y10.587 F4865.440 E3.28669
G1 X37.397 Y10.247 E3.37337
G1 X40.000 Y10.133 E3.46006
G1 X42.603 Y10.247 E3.54674
G1 X45.186 Y10.587 E3.63343
G1 X47.685 Y11.141 E3.71857
G1 X47.685 Y11.137 E3.71871
G1 X50.215 Y11.935 E3.80698
G1 X52.622 Y12.932 E3.89367
G1 X53.355 Y13.313 E3.92117
G1 X53.355 Y13.313 E3.92117
G1 X54.933 Y14.135 E3.98035
G1 X57.131 Y15.535 E4.06704
G1 X59.198 Y17.121 E4.15372
G1 X61.119 Y18.881 E4.24041
G1 X62.879 Y20.802 E4.32709
G1 X64.465 Y22.869 E4.41378
G1 X65.865 Y25.067 E4.50047
G1 X67.068 Y27.378 E4.58715
G1 X68.065 Y29.785 E4.67384
G1 X68.228 Y30.302 E4.69187
G1 X68.228 Y30.302 E4.69187
G1 X68.849 Y32.270 E4.76052
G1 X69.246 Y34.061 E4.82156
G1 X69.246 Y34.061 E4.82156
G1 X69.413 Y34.814 E4.84721
G1 X69.753 Y37.397 E4.93389
G1 X69.867 Y40.000 E5.02058
G1 X69.753 Y42.603 E5.10727
G1 X69.413 Y45.186 E5.19395
G1 X68.849 Y47.730 E5.28064
G1 X68.065 Y50.215 E5.36732
G1 X67.810 Y50.830 E5.38949
G1 X67.810 Y50.830 E5.38949
G1 X67.068 Y52.622 E5.45401
G1 X65.865 Y54.933 E5.54069
G1 X64.465 Y57.131 E5.62738
G1 X62.879 Y59.198 E5.71407
G1 X62.713 Y59.379 E5.72224
G1 X62.713 Y59.379 E5.72224
G1 X61.119 Y61.119 E5.80075
G1 X59.198 Y62.879 E5.88744
G1 X57.131 Y64.465 E5.97412
G1 X56.521 Y64.853 E5.99816
G1 X56.521 Y64.853 E5.99816
G1 X54.933 Y65.865 E6.06081
G1 X52.622 Y67.068 E6.14750
G1 X50.215 Y68.065 E6.23418
G1 X49.448 Y68.307 E6.26092
G1 X49.448 Y68.307 E6.26092
G1 X47.730 Y68.849 E6.32087
G1 X45.939 Y69.246 E6.38191
G1 X45.939 Y69.246 E6.38191
G1 X45.186 Y69.413 E6.40755
G1 X42.603 Y69.753 E6.49424
G1 X40.000 Y69.867 E6.58092
G1 X37.397 Y69.753 E6.66761
G1 X34.814 Y69.413 E6.75430
G1 X33.681 Y69.162 E6.79291
G1 X33.681 Y69.162 E6.79291
G1 X32.270 Y68.849 E6.84098
G1 X31.251 Y68.528 E6.87652
G1 X31.251 Y68.528 E6.87652
G1 X29.785 Y68.065 E6.92767
G1 X27.378 Y67.068 E7.01435
G1 X25.067 Y65.865 E7.10104
G1 X22.869 Y64.465 E7.18772
G1 X20.802 Y62.879 E7.27441
G1 X18.881 Y61.119 E7.36110
G1 X17.121 Y59.198 E7.44778
G1 X15.535 Y57.131 E7.53447
G1 X14.135 Y54.933 E7.62115
G1 X12.932 Y52.622 E7.70784
G1 X11.935 Y50.215 E7.79453
G1 X11.151 Y47.730 E7.88121
G1 X10.587 Y45.186 E7.96790
G1 X10.247 Y42.603 E8.05458
G1 X10.133 Y40.000 E8.14127
G1 X10.247 Y37.397 E8.22795
G1 X10.587 Y34.814 E8.31464
G1 X11.141 Y32.315 E8.39978
G1 X11.137 Y32.315 E8.39992
G1 X11.935 Y29.785 E8.48819
G1 X12.932 Y27.378 E8.57488
G1 X14.135 Y25.067 E8.66156
G1 X15.535 Y22.869 E8.74825
G1 X17.121 Y20.802 E8.83493
G1 X18.881 Y18.881 E8.92162
G1 X20.802 Y17.121 E9.00830
G1 X21.545 Y16.551 E9.03945
G1 X21.545 Y16.551 E9.03945
G1 X22.869 Y15.535 E9.09499
G1 X25.067 Y14.135 E9.18168
G1 X27.378 Y12.932 E9.26836
G1 X29.785 Y11.935 E9.35505
G1 X32.217 Y11.168 E9.43990
G1 X32.363 Y11.500 F36000.000
G1 X34.876 Y10.943 F4865.440 E9.52554
G1 X37.428 Y10.607 E9.61118
G1 X40.000 Y10.494 E9.69681
G1 X42.572 Y10.607 E9.78245
G1 X45.124 Y10.943 E9.86809
G1 X45.583 Y11.045 E9.88376
G1 X45.583 Y11.045 E9.88376
G1 X47.637 Y11.500 E9.95373
G1 X48.045 Y11.629 E9.96798
G1 X48.045 Y11.629 E9.96798
G1 X50.091 Y12.274 E10.03937
G1 X52.470 Y13.259 E10.12500
G1 X54.753 Y14.447 E10.21064
G1 X56.924 Y15.830 E10.29628
G1 X58.966 Y17.397 E10.38192
G1 X60.864 Y19.136 E10.46756
G1 X62.603 Y21.034 E10.55319
G1 X64.170 Y23.076 E10.63883
G1 X65.553 Y25.247 E10.72447
G1 X66.741 Y27.530 E10.81011
G1 X67.726 Y29.908 E10.89575
G1 X67.964 Y30.662 E10.92205
G1 X67.964 Y30.662 E10.92205
G1 X68.500 Y32.363 E10.98138
G1 X68.797 Y33.701 E11.02695
G1 X68.797 Y33.701 E11.02695
G1 X69.057 Y34.876 E11.06702
G1 X69.393 Y37.428 E11.15266
G1 X69.506 Y40.000 E11.23830
G1 X69.393 Y42.572 E11.32394
G1 X69.057 Y45.124 E11.40957
G1 X68.500 Y47.637 E11.49521
G1 X67.726 Y50.091 E11.58085
G1 X67.271 Y51.191 E11.62045
G1 X67.271 Y51.191 E11.62045
G1 X66.741 Y52.470 E11.66649
G1 X65.553 Y54.753 E11.75213
G1 X64.170 Y56.924 E11.83777
G1 X62.603 Y58.966 E11.92340
G1 X62.214 Y59.390 E11.94253
G1 X62.214 Y59.390 E11.94253
G1 X60.864 Y60.864 E12.00904
G1 X58.966 Y62.603 E12.09468
G1 X56.924 Y64.170 E12.18032
G1 X54.753 Y65.553 E12.26596
G1 X52.470 Y66.741 E12.35159
G1 X50.092 Y67.726 E12.43723
G1 X49.088 Y68.043 E12.47225
G1 X49.088 Y68.043 E12.47225
G1 X47.637 Y68.500 E12.52287
G1 X46.299 Y68.797 E12.56844
G1 X46.299 Y68.797 E12.56844
G1 X45.124 Y69.057 E12.60851
G1 X42.572 Y69.393 E12.69415
G1 X40.000 Y69.506 E12.77978
G1 X37.428 Y69.393 E12.86542
G1 X34.876 Y69.057 E12.95106
G1 X32.363 Y68.500 E13.03670
G1 X31.612 Y68.263 E13.06292
G1 X31.612 Y68.263 E13.06292
G1 X29.908 Y67.726 E13.12234
G1 X27.530 Y66.741 E13.20797
G1 X25.247 Y65.553 E13.29361
G1 X23.076 Y64.170 E13.37925
G1 X21.034 Y62.603 E13.46489
G1 X19.136 Y60.864 E13.55053
G1 X17.397 Y58.966 E13.63616
G1 X15.830 Y56.924 E13.72180
G1 X14.447 Y54.753 E13.80744
G1 X13.259 Y52.470 E13.89308
G1 X12.274 Y50.091 E13.97872
G1 X11.500 Y47.637 E14.06435
G1 X11.349 Y46.957 E14.08750
G1 X11.349 Y46.957 E14.08750
G1 X10.943 Y45.124 E14.14999
G1 X10.607 Y42.572 E14.23563
G1 X10.494 Y40.000 E14.32127
G1 X10.607 Y37.428 E14.40691
G1 X10.943 Y34.876 E14.49255
G1 X11.500 Y32.363 E14.57818
G1 X11.629 Y31.955 E14.59244
G1 X11.629 Y31.955 E14.59244
G1 X12.274 Y29.908 E14.66382
G1 X13.259 Y27.530 E14.74946
G1 X14.447 Y25.247 E14.83510
G1 X15.830 Y23.076 E14.92074
G1 X17.397 Y21.034 E15.00637
G1 X19.136 Y19.136 E15.09201
G1 X21.034 Y17.397 E15.17765
G1 X23.076 Y15.830 E15.26329
G1 X25.247 Y14.447 E15.34893
G1 X27.530 Y13.259 E15.43456
G1 X29.908 Y12.274 E15.52020
G1 X32.311 Y11.516 E15.60401
G1 X32.457 Y11.848 F36000.000
G1 X34.939 Y11.298 F4865.440 E15.68860
G1 X37.460 Y10.966 E15.77319
G1 X40.000 Y10.855 E15.85778
G1 X42.540 Y10.966 E15.94237
G1 X45.061 Y11.298 E16.02696
