; generated by Slic3r 1.1.7 on 2015-02-23 at 21:34:35

; perimeters extrusion width = 0.50mm
; infill extrusion width = 0.52mm
; solid infill extrusion width = 0.52mm
; top infill extrusion width = 0.52mm

G21 ; set units to millimeters
M107
M104 S205 ; set temperature
G28 ; home all axes
G1 Z5 F5000 ; lift nozzle

M109 S205 ; wait for temperature to be reached
G90 ; use absolute coordinates
G92 E0
M82 ; use absolute distances for extrusion
G1 F1800.000 E-1.00000
G92 E0
G1 Z0.500 F7800.000
G1 X73.365 Y72.940 F7800.000
G1 E1.00000 F1800.000
G1 X75.825 Y70.722 E1.20918 F1080.000
G1 X78.469 Y68.726 E1.41834
G1 X81.277 Y66.969 E1.62750
G1 X84.227 Y65.463 E1.83666
G1 X87.297 Y64.219 E2.04582
G1 X90.464 Y63.248 E2.25498
G1 X93.703 Y62.557 E2.46414
G1 X96.990 Y62.151 E2.67331
G1 X100.301 Y62.032 E2.88246
G1 X100.497 Y62.041 E2.89489
G1 X103.609 Y62.203 E3.09162 F1080.000
G1 X106.889 Y62.661 E3.30079
G1 X110.117 Y63.404 E3.50994
G1 X113.268 Y64.425 E3.71911
G1 X116.318 Y65.717 E3.92825
G1 X119.244 Y67.269 E4.13743
G1 X122.024 Y69.071 E4.34659
G1 X124.635 Y71.108 E4.55575
G1 X127.060 Y73.365 E4.76490
G1 X129.278 Y75.825 E4.97406
G1 X131.274 Y78.469 E5.18323
G1 X133.031 Y81.277 E5.39239
G1 X134.537 Y84.227 E5.60155
G1 X135.781 Y87.297 E5.81071
G1 X136.752 Y90.464 E6.01987
G1 X137.443 Y93.703 E6.22903
G1 X137.849 Y96.990 E6.43819
G1 X137.968 Y100.301 E6.64735
G1 X137.797 Y103.609 E6.85651
G1 X137.339 Y106.889 E7.06568
G1 X136.596 Y110.117 E7.27484
G1 X135.575 Y113.268 E7.48399
G1 X134.283 Y116.318 E7.69315
G1 X132.731 Y119.244 E7.90232
G1 X130.929 Y122.024 E8.11148
G1 X128.892 Y124.635 E8.32063
G1 X126.635 Y127.060 E8.52980
G1 X124.175 Y129.278 E8.73895
G1 X121.531 Y131.274 E8.94812
G1 X118.723 Y133.031 E9.15728
G1 X115.773 Y134.537 E9.36644
G1 X112.703 Y135.781 E9.57559
G1 X109.536 Y136.752 E9.78476
G1 X106.297 Y137.443 E9.99392
G1 X103.010 Y137.849 E10.20308
G1 X102.813 Y137.858 E10.21550
G1 X99.699 Y137.968 E10.41224
G1 X96.391 Y137.797 E10.62140
G1 X93.111 Y137.339 E10.83057
G1 X89.883 Y136.596 E11.03973
G1 X86.732 Y135.575 E11.24889
G1 X83.682 Y134.283 E11.45805
G1 X80.756 Y132.731 E11.66721
G1 X77.976 Y130.929 E11.87637
G1 X75.365 Y128.892 E12.08552
G1 X72.940 Y126.635 E12.29468
G1 X70.722 Y124.175 E12.50385
G1 X68.726 Y121.531 E12.71301
G1 X66.969 Y118.723 E12.92217
G1 X65.463 Y115.773 E13.13133
G1 X64.219 Y112.703 E13.34049
G1 X63.248 Y109.536 E13.54965
G1 X62.557 Y106.297 E13.75881
G1 X62.151 Y103.010 E13.96797
G1 X62.032 Y99.699 E14.17713
G1 X62.203 Y96.391 E14.38629
G1 X62.661 Y93.111 E14.59545
G1 X63.404 Y89.883 E14.80461
G1 X64.425 Y86.732 E15.01378
G1 X65.717 Y83.682 E15.22293
G1 X67.269 Y80.756 E15.43210
G1 X69.071 Y77.976 E15.64126
G1 X71.108 Y75.365 E15.85041
G1 X73.314 Y72.995 E16.05482
G1 F1800.000 E15.05482
G92 E0
G1 X120.989 Y120.989 F7800.000
G1 E1.00000 F1800.000
G1 X119.080 Y122.738 E1.16352 F378.000
G1 X117.025 Y124.315 E1.32703
G1 X114.841 Y125.706 E1.49055
G1 X112.545 Y126.902 E1.65406
G1 X110.346 Y127.812 E1.80432
G1 X110.152 Y127.893 E1.81758
G1 X107.683 Y128.672 E1.98109
G1 X105.154 Y129.232 E2.14461
G1 X102.795 Y129.543 E2.29486
G1 X102.587 Y129.570 E2.30813
G1 X100.000 Y129.683 E2.47164
G1 X97.413 Y129.570 E2.63516
G1 X94.846 Y129.232 E2.79867
G1 X92.317 Y128.672 E2.96219
G1 X89.848 Y127.893 E3.12570
G1 X87.455 Y126.902 E3.28922
G1 X85.345 Y125.803 E3.43947
G1 X85.159 Y125.706 E3.45274
G1 X82.975 Y124.315 E3.61625
G1 X80.920 Y122.738 E3.77977
G1 X79.011 Y120.989 E3.94328
G1 X77.403 Y119.235 E4.09354
G1 X77.262 Y119.080 E4.10680
G1 X75.685 Y117.025 E4.27031
G1 X74.294 Y114.841 E4.43383
G1 X73.098 Y112.545 E4.59735
G1 X72.107 Y110.152 E4.76086
G1 X71.328 Y107.683 E4.92438
G1 X70.768 Y105.154 E5.08789
G1 X70.430 Y102.587 E5.25141
G1 X70.317 Y100.000 E5.41492
G1 X70.430 Y97.413 E5.57844
G1 X70.768 Y94.846 E5.74196
G1 X71.283 Y92.523 E5.89221
G1 X71.328 Y92.317 E5.90547
G1 X72.107 Y89.848 E6.06899
G1 X73.098 Y87.455 E6.23250
G1 X74.294 Y85.159 E6.39602
G1 X75.685 Y82.975 E6.55953
G1 X77.262 Y80.920 E6.72305
G1 X79.011 Y79.011 E6.88657
G1 X80.920 Y77.262 E7.05008
G1 X82.975 Y75.685 E7.21360
G1 X85.159 Y74.294 E7.37711
G1 X87.455 Y73.098 E7.54063
G1 X89.848 Y72.107 E7.70415
G1 X92.317 Y71.328 E7.86766
G1 X94.846 Y70.768 E8.03118
G1 X97.413 Y70.430 E8.19469
G1 X100.000 Y70.317 E8.35821
G1 X102.377 Y70.421 E8.50846
G1 X102.587 Y70.430 E8.52172 F378.000
G1 X105.154 Y70.768 E8.68524
G1 X107.683 Y71.328 E8.84875
G1 X110.152 Y72.107 E9.01227
G1 X112.545 Y73.098 E9.17579
G1 X114.841 Y74.294 E9.33930
G1 X117.025 Y75.685 E9.50282
G1 X119.080 Y77.262 E9.66633
G1 X120.989 Y79.011 E9.82985
G1 X122.738 Y80.920 E9.99336
G1 X124.315 Y82.975 E10.15688
G1 X125.706 Y85.159 E10.32040
G1 X126.902 Y87.455 E10.48391
G1 X127.893 Y89.848 E10.64743
G1 X128.672 Y92.317 E10.81094
G1 X129.232 Y94.846 E10.97446
G1 X129.570 Y97.413 E11.13797
G1 X129.683 Y100.000 E11.30149
G1 X129.570 Y102.587 E11.46501
G1 X129.232 Y105.154 E11.62852
G1 X128.672 Y107.683 E11.79204
G1 X127.893 Y110.152 E11.95555
G1 X126.902 Y112.545 E12.11907
G1 X125.706 Y114.841 E12.28258
G1 X124.315 Y117.025 E12.44610
G1 X122.738 Y119.080 E12.60962
G1 X121.040 Y120.934 E12.76840
G1 F1800.000 E11.76840
G92 E0
G1 X102.356 Y70.212 F7800.000
G1 X121.595 Y121.651 F7800.000
G1 E1.00000 F1800.000
G1 X119.657 Y123.426 E1.16599 F378.000
G1 X117.541 Y125.051 E1.33445
G1 X115.291 Y126.484 E1.50291
G1 X112.924 Y127.716 E1.67138
G1 X110.459 Y128.737 E1.83984
G1 X107.915 Y129.539 E2.00830
G1 X105.310 Y130.116 E2.17677
G1 X102.665 Y130.465 E2.34523
G1 X100.000 Y130.581 E2.51369
G1 X97.335 Y130.465 E2.68216
G1 X97.161 Y130.442 E2.69320
G1 X94.690 Y130.116 E2.85062
G1 X92.085 Y129.539 E3.01908
G1 X89.541 Y128.737 E3.18754
G1 X87.076 Y127.716 E3.35601
G1 X84.709 Y126.484 E3.52447
G1 X82.459 Y125.051 E3.69293
G1 X80.343 Y123.426 E3.86140
G1 X80.214 Y123.308 E3.87244
G1 X78.376 Y121.624 E4.02986
G1 X76.574 Y119.657 E4.19832
G1 X74.949 Y117.541 E4.36679
G1 X73.516 Y115.291 E4.53525
G1 X72.284 Y112.924 E4.70371
G1 X71.263 Y110.459 E4.87218
G1 X70.461 Y107.915 E5.04064
G1 X69.884 Y105.310 E5.20910
G1 X69.535 Y102.665 E5.37756
G1 X69.419 Y100.000 E5.54603
G1 X69.535 Y97.335 E5.71449
G1 X69.558 Y97.161 E5.72553
G1 X69.884 Y94.690 E5.88295
G1 X70.461 Y92.085 E6.05142
G1 X71.263 Y89.541 E6.21988
G1 X72.284 Y87.076 E6.38834
G1 X72.365 Y86.921 E6.39938
G1 X73.516 Y84.709 E6.55680
G1 X74.949 Y82.459 E6.72527
G1 X76.574 Y80.343 E6.89373
G1 X76.692 Y80.214 E6.90477
G1 X78.376 Y78.376 E7.06219
G1 X80.343 Y76.574 E7.23066
G1 X82.459 Y74.949 E7.39912
G1 X84.709 Y73.516 E7.56758
G1 X87.076 Y72.284 E7.73605
G1 X89.541 Y71.263 E7.90451
G1 X92.085 Y70.461 E8.07297
G1 X94.690 Y69.884 E8.24143
G1 X97.335 Y69.535 E8.40990
G1 X100.000 Y69.419 E8.57836
G1 X100.175 Y69.427 E8.58940
G1 X102.665 Y69.535 E8.74682 F378.000
G1 X105.310 Y69.884 E8.91529
G1 X107.915 Y70.461 E9.08375
G1 X110.459 Y71.263 E9.25221
G1 X112.924 Y72.284 E9.42068
G1 X113.079 Y72.365 E9.43172
G1 X115.291 Y73.516 E9.58914
G1 X117.541 Y74.949 E9.75760
G1 X119.657 Y76.574 E9.92606
G1 X121.624 Y78.376 E10.09453
G1 X123.426 Y80.343 E10.26299
G1 X125.051 Y82.459 E10.43145
G1 X126.484 Y84.709 E10.59992
G1 X127.716 Y87.076 E10.76838
G1 X128.737 Y89.541 E10.93684
G1 X129.539 Y92.085 E11.10531
G1 X130.116 Y94.690 E11.27377
G1 X130.465 Y97.335 E11.44223
G1 X130.581 Y100.000 E11.61069
G1 X130.465 Y102.665 E11.77916
G1 X130.116 Y105.310 E11.94762
G1 X129.539 Y107.915 E12.11608
G1 X128.737 Y110.459 E12.28455
G1 X127.716 Y112.924 E12.45301
G1 X126.484 Y115.291 E12.62147
G1 X125.051 Y117.541 E12.78994
G1 X123.426 Y119.657 E12.95840
G1 X121.648 Y121.598 E13.12460
G1 F1800.000 E12.12460
G92 E0
G1 X100.634 Y69.625 F7800.000
M106 S246
M104 S200 ; set temperature
G1 Z0.900 F7800.000
G1 X112.298 Y71.978 F7800.000
G1 X120.634 Y77.410 F7800.000
G1 X126.799 Y85.221 F7800.000
G1 X130.140 Y94.599 F7800.000
G1 X130.260 Y104.553 F7800.000
G1 X127.195 Y114.018 F7800.000
G1 X121.129 Y121.142 F7800.000
G1 E1.00000 F1800.000
G1 X119.213 Y122.897 E1.07352 F1800.000
G1 X117.144 Y124.485 E1.14730
G1 X114.945 Y125.886 E1.22108
G1 X112.632 Y127.090 E1.29486
G1 X110.223 Y128.088 E1.36864
G1 X107.736 Y128.872 E1.44242
G1 X105.087 Y129.450 E1.51913
G1 X102.605 Y129.776 E1.58997
G1 X100.000 Y129.890 E1.66375
G1 X97.395 Y129.776 E1.73753
G1 X94.810 Y129.436 E1.81131
G1 X92.264 Y128.872 E1.88509
G1 X89.681 Y128.048 E1.96179
G1 X87.368 Y127.090 E2.03264
G1 X85.055 Y125.886 E2.10642
G1 X82.773 Y124.421 E2.18312
G1 X80.787 Y122.897 E2.25396
G1 X78.864 Y121.136 E2.32775
G1 X77.103 Y119.213 E2.40152
G1 X75.515 Y117.144 E2.47530
G1 X74.114 Y114.945 E2.54908
G1 X72.910 Y112.632 E2.62286
G1 X71.912 Y110.223 E2.69664
G1 X71.128 Y107.736 E2.77042
G1 X70.550 Y105.088 E2.84713
G1 X70.224 Y102.605 E2.91797
G1 X70.110 Y100.000 E2.99175
G1 X70.224 Y97.395 E3.06553
G1 X70.586 Y94.708 E3.14224
G1 X71.128 Y92.264 E3.21308
G1 X71.912 Y89.777 E3.28686
G1 X72.958 Y87.276 E3.36356
G1 X74.114 Y85.055 E3.43441
G1 X75.515 Y82.856 E3.50818
G1 X77.103 Y80.787 E3.58197
G1 X78.864 Y78.864 E3.65575
G1 X80.787 Y77.103 E3.72952
G1 X82.943 Y75.460 E3.80623
G1 X85.055 Y74.114 E3.87707
G1 X87.368 Y72.910 E3.95085
G1 X89.876 Y71.881 E4.02756
G1 X92.264 Y71.128 E4.09840
G1 X94.810 Y70.564 E4.17218
G1 X97.395 Y70.224 E4.24596
G1 X100.104 Y70.114 E4.32267
G1 X102.605 Y70.224 E4.39351 F1800.000
G1 X105.190 Y70.564 E4.46729
G1 X107.736 Y71.128 E4.54107
G1 X110.223 Y71.912 E4.61485
G1 X112.724 Y72.958 E4.69155
G1 X114.945 Y74.114 E4.76240
G1 X117.144 Y75.515 E4.83618
G1 X119.213 Y77.103 E4.90996
G1 X121.136 Y78.864 E4.98374
G1 X122.897 Y80.787 E5.05751
G1 X124.485 Y82.856 E5.13130
G1 X125.886 Y85.055 E5.20508
G1 X127.090 Y87.368 E5.27885
G1 X128.088 Y89.777 E5.35263
G1 X128.872 Y92.264 E5.42641
G1 X129.436 Y94.810 E5.50019
G1 X129.776 Y97.395 E5.57396
G1 X129.890 Y100.000 E5.64775
G1 X129.776 Y102.605 E5.72153
G1 X129.436 Y105.190 E5.79531
G1 X128.872 Y107.736 E5.86909
G1 X128.088 Y110.223 E5.94287
G1 X127.090 Y112.632 E6.01665
G1 X125.886 Y114.945 E6.09043
G1 X124.485 Y117.144 E6.16421
G1 X122.897 Y119.213 E6.23799
G1 X121.180 Y121.087 E6.30990
G1 X120.782 Y120.782 F7800.000
G1 X118.891 Y122.514 E6.38245 F1800.000
G1 X116.857 Y124.075 E6.45499
G1 X114.695 Y125.452 E6.52754
G1 X112.421 Y126.636 E6.60008
G1 X109.974 Y127.642 E6.67494
G1 X107.607 Y128.388 E6.74516
G1 X105.103 Y128.943 E6.81770
G1 X102.561 Y129.278 E6.89025
G1 X99.918 Y129.386 E6.96510
G1 X97.439 Y129.278 E7.03533
G1 X94.897 Y128.943 E7.10787
G1 X92.315 Y128.364 E7.18273
G1 X89.948 Y127.617 E7.25295
G1 X87.579 Y126.636 E7.32550
G1 X85.305 Y125.452 E7.39804
G1 X83.078 Y124.025 E7.47290
G1 X81.109 Y122.514 E7.54312
G1 X79.218 Y120.782 E7.61567
G1 X77.486 Y118.891 E7.68821
G1 X75.925 Y116.857 E7.76076
G1 X74.548 Y114.695 E7.83330
G1 X73.364 Y112.421 E7.90584
G1 X72.358 Y109.974 E7.98070
G1 X71.612 Y107.607 E8.05092
G1 X71.057 Y105.104 E8.12347
G1 X70.722 Y102.561 E8.19601
G1 X70.610 Y100.000 E8.26856
G1 X70.722 Y97.438 E8.34110
G1 X71.057 Y94.897 E8.41364
G1 X71.612 Y92.393 E8.48619
G1 X72.383 Y89.948 E8.55873
G1 X73.364 Y87.579 E8.63128
G1 X74.548 Y85.305 E8.70382
G1 X75.975 Y83.078 E8.77868
G1 X77.486 Y81.109 E8.84890
G1 X79.218 Y79.218 E8.92145
G1 X81.109 Y77.486 E8.99399
G1 X83.143 Y75.925 E9.06653
G1 X85.305 Y74.548 E9.13908
G1 X87.655 Y73.332 E9.21393
G1 X89.948 Y72.383 E9.28416
G1 X92.393 Y71.612 E9.35670
G1 X94.896 Y71.057 E9.42925
G1 X97.520 Y70.719 E9.50410
G1 X100.000 Y70.610 E9.57433 F1800.000
G1 X102.562 Y70.722 E9.64687
G1 X105.103 Y71.057 E9.71942
G1 X107.607 Y71.612 E9.79196
G1 X110.052 Y72.383 E9.86451
G1 X112.421 Y73.364 E9.93705
G1 X114.695 Y74.548 E10.00959
G1 X116.857 Y75.925 E10.08214
G1 X118.891 Y77.486 E10.15468
G1 X120.837 Y79.279 E10.22954
G1 X122.514 Y81.109 E10.29976
G1 X124.075 Y83.143 E10.37231
G1 X125.452 Y85.305 E10.44485
G1 X126.636 Y87.579 E10.51739
G1 X127.617 Y89.948 E10.58994
G1 X128.388 Y92.393 E10.66248
G1 X128.954 Y94.978 E10.73734
G1 X129.278 Y97.438 E10.80756
G1 X129.390 Y100.000 E10.88011
G1 X129.278 Y102.561 E10.95265
G1 X128.943 Y105.103 E11.02520
G1 X128.388 Y107.607 E11.09774
G1 X127.617 Y110.052 E11.17028
G1 X126.636 Y112.421 E11.24283
G1 X125.452 Y114.695 E11.31537
G1 X124.075 Y116.857 E11.38792
G1 X122.514 Y118.891 E11.46046
G1 X120.832 Y120.726 E11.53088
G1 X120.428 Y120.428 F7800.000
M106 S255
G1 X118.570 Y122.130 E11.60089 F3600.000
G1 X116.570 Y123.665 E11.67090
G1 X114.445 Y125.019 E11.74091
G1 X112.209 Y126.183 E11.81091
G1 X109.881 Y127.147 E11.88092
G1 X107.477 Y127.905 E11.95093
G1 X104.957 Y128.458 E12.02260
G1 X102.518 Y128.779 E12.09094
G1 X100.000 Y128.889 E12.16094
G1 X97.482 Y128.779 E12.23095
G1 X94.925 Y128.437 E12.30262
G1 X92.523 Y127.905 E12.37096
G1 X90.119 Y127.147 E12.44097
G1 X87.791 Y126.183 E12.51097
G1 X85.555 Y125.019 E12.58098
G1 X83.430 Y123.665 E12.65099
G1 X81.430 Y122.130 E12.72100
G1 X79.572 Y120.428 E12.79100
G1 X77.870 Y118.570 E12.86101
G1 X76.335 Y116.570 E12.93102
G1 X74.981 Y114.445 E13.00103
G1 X73.817 Y112.209 E13.07103
G1 X72.853 Y109.881 E13.14104
G1 X72.095 Y107.477 E13.21105
G1 X71.542 Y104.957 E13.28272
G1 X71.221 Y102.518 E13.35106
G1 X71.111 Y100.000 E13.42106
G1 X71.221 Y97.482 E13.49107
G1 X71.563 Y94.925 E13.56274
G1 X72.095 Y92.523 E13.63108
G1 X72.853 Y90.119 E13.70109
G1 X73.845 Y87.738 E13.77276
G1 X74.981 Y85.555 E13.84110
G1 X76.335 Y83.430 E13.91110
G1 X77.870 Y81.430 E13.98111
G1 X79.572 Y79.572 E14.05112
G1 X81.430 Y77.870 E14.12112
G1 X83.481 Y76.303 E14.19280
G1 X85.555 Y74.981 E14.26113
G1 X87.791 Y73.817 E14.33114
G1 X90.177 Y72.835 E14.40281
G1 X92.523 Y72.095 E14.47115
G1 X94.983 Y71.550 E14.54116
G1 X97.482 Y71.221 E14.61116
G1 X100.060 Y71.113 E14.68284
M106 S246
M106 S255
G1 X102.518 Y71.221 E14.75117 F3600.000
G1 X105.017 Y71.550 E14.82118
G1 X107.477 Y72.095 E14.89119
G1 X109.881 Y72.853 E14.96119
G1 X112.262 Y73.845 E15.03287
G1 X114.445 Y74.981 E15.10120
G1 X116.570 Y76.335 E15.17121
G1 X118.570 Y77.870 E15.24122
G1 X120.428 Y79.572 E15.31123
G1 X122.130 Y81.430 E15.38123
G1 X123.665 Y83.430 E15.45124
G1 X125.019 Y85.555 E15.52125
G1 X126.183 Y87.791 E15.59125
G1 X127.147 Y90.119 E15.66126
G1 X127.905 Y92.523 E15.73127
G1 X128.458 Y95.043 E15.80294
G1 X128.779 Y97.482 E15.87128
G1 X128.889 Y100.000 E15.94129
G1 X128.779 Y102.518 E16.01129
G1 X128.450 Y105.017 E16.08130
G1 X127.905 Y107.477 E16.15131
G1 X127.147 Y109.881 E16.22131
G1 X126.183 Y112.209 E16.29132
G1 X125.019 Y114.445 E16.36133
G1 X123.665 Y116.570 E16.43134
G1 X122.130 Y118.570 E16.50134
G1 X120.478 Y120.373 E16.56927
M106 S246
G1 X121.521 Y121.430 F7800.000
G1 X119.524 Y123.268 E16.64607 F1800.000
G1 X117.422 Y124.881 E16.72104
G1 X115.187 Y126.304 E16.79601
G1 X112.837 Y127.528 E16.87099
G1 X110.388 Y128.542 E16.94596
G1 X107.861 Y129.339 E17.02093
G1 X105.274 Y129.912 E17.09591
G1 X102.647 Y130.258 E17.17088
G1 X100.000 Y130.374 E17.24585
G1 X97.353 Y130.258 E17.32083
G1 X94.726 Y129.912 E17.39580
G1 X92.139 Y129.339 E17.47077
G1 X89.612 Y128.542 E17.54574
G1 X87.163 Y127.528 E17.62072
G1 X84.813 Y126.304 E17.69569
G1 X82.578 Y124.881 E17.77067
G1 X80.476 Y123.268 E17.84564
G1 X78.523 Y121.478 E17.92061
G1 X76.732 Y119.524 E17.99558
G1 X75.119 Y117.422 E18.07056
G1 X73.696 Y115.187 E18.14553
G1 X72.472 Y112.836 E18.22050
G1 X71.458 Y110.388 E18.29548
G1 X70.661 Y107.861 E18.37045
G1 X70.088 Y105.274 E18.44542
G1 X69.742 Y102.647 E18.52039
G1 X69.626 Y100.000 E18.59537
G1 X69.742 Y97.353 E18.67034
G1 X70.088 Y94.726 E18.74532
G1 X70.661 Y92.139 E18.82029
G1 X71.458 Y89.612 E18.89526
G1 X72.472 Y87.163 E18.97024
G1 X73.696 Y84.813 E19.04521
G1 X75.119 Y82.578 E19.12018
G1 X76.732 Y80.476 E19.19515
G1 X78.523 Y78.522 E19.27013
G1 X80.476 Y76.732 E19.34510
G1 X82.578 Y75.119 E19.42008
G1 X84.813 Y73.696 E19.49505
G1 X87.164 Y72.472 E19.57002
G1 X89.612 Y71.458 E19.64499
G1 X92.139 Y70.661 E19.71997
G1 X94.726 Y70.088 E19.79494
G1 X97.353 Y69.742 E19.86991
G1 X100.000 Y69.626 E19.94489
G1 X102.647 Y69.742 E20.01986
G1 X105.274 Y70.088 E20.09483 F1800.000
G1 X107.861 Y70.661 E20.16981
G1 X110.388 Y71.458 E20.24478
G1 X112.837 Y72.472 E20.31975
